; generated by PrusaSlicer 2.6.1+win64 on 2024-03-22 at 16:28:14 UTC


;
;
; 

; external perimeters extrusion width = 0.45mm
; perimeters extrusion width = 0.45mm
; infill extrusion width = 0.45mm
; solid infill extrusion width = 0.45mm
; top infill extrusion width = 0.40mm
; first layer extrusion width = 0.42mm

; external perimeters extrusion width = 0.45mm
; perimeters extrusion width = 0.45mm
; infill extrusion width = 0.45mm
; solid infill extrusion width = 0.45mm
; top infill extrusion width = 0.40mm
; first layer extrusion width = 0.42mm

M73 P0 R23
M73 Q0 S23
M201 X1000 Y1000 Z200 E5000 ; sets maximum accelerations, mm/sec^2
M203 X200 Y200 Z12 E120 ; sets maximum feedrates, mm / sec
M204 S1250 T1250 ; sets acceleration (S) and retract acceleration (R), mm/sec^2
M205 X8.00 Y8.00 Z0.40 E4.50 ; sets the jerk limits, mm/sec
M205 S0 T0 ; sets the minimum extruding and travel feed rate, mm/sec
;TYPE:Custom
M862.3 P "MK3S" ; printer model check
M862.1 P0.4 ; nozzle diameter check
M115 U3.13.2 ; tell printer latest fw version
G90 ; use absolute coordinates
M83 ; extruder relative mode
M104 S215 ; set extruder temp
M140 S60 ; set bed temp
M190 S60 ; wait for bed temp
M109 S215 ; wait for extruder temp
G28 W ; home all without mesh bed level
G80 ; mesh bed leveling

G1 Z0.2 F720
G1 Y-3 F1000 ; go outside print area
G92 E0
G1 X60 E9 F1000 ; intro line
G1 X100 E12.5 F1000 ; intro line

G92 E0
M221 S95

; Don't change E values below. Excessive value can damage the printer.
M907 E430 ; set extruder motor current
G21 ; set units to millimeters
G90 ; use absolute coordinates
M83 ; use relative distances for extrusion
M900 K0.05 ; Filament gcode LA 1.5
M900 K30 ; Filament gcode LA 1.0

M107
;LAYER_CHANGE
;Z:0.2
;HEIGHT:0.2
;BEFORE_LAYER_CHANGE
G92 E0.0
;0.2


G1 E-.8 F2100
G1 Z.4 F720
;AFTER_LAYER_CHANGE
;0.2
G1 X35.055 Y63.02 F10800
G1 Z.2 F720
G1 E.8 F2100
M204 S800
;TYPE:Skirt/Brim
;WIDTH:0.42
G1 F1200
G1 X35.969 Y62.517 E.03271
G1 X36.99 Y62.278 E.03288
G1 X58.925 Y62.262 E.68776
G1 X211.512 Y75.451 E4.8021
G1 X212.952 Y75.813 E.04655
M73 P1 R23
M73 Q1 S23
G1 X214.215 Y76.472 E.04467
G1 X215.241 Y77.383 E.04302
G1 X215.962 Y78.485 E.04129
G1 X216.344 Y79.571 E.0361
G1 X216.49 Y80.739 E.03691
G1 X216.169 Y85.16 E.13898
G1 X215.902 Y86.286 E.03628
G1 X215.449 Y87.315 E.03525
G1 X214.823 Y88.199 E.03396
G1 X214.036 Y88.938 E.03385
G1 X138.282 Y145.004 E2.95498
G1 X137.058 Y145.777 E.04539
G1 X135.867 Y146.384 E.04191
G1 X134.522 Y146.92 E.0454
G1 X133.132 Y147.324 E.04539
G1 X131.73 Y147.59 E.04474
G1 X130.288 Y147.723 E.0454
G1 X128.848 Y147.718 E.04515
G1 X127.4 Y147.574 E.04562
G1 X126.108 Y147.324 E.04126
G1 X124.948 Y146.997 E.03779
G1 X123.724 Y146.538 E.04099
G1 X122.547 Y145.977 E.04088
G1 X43.598 Y103.362 E2.81299
G1 X43.044 Y102.987 E.02098
G1 X42.582 Y102.517 E.02066
G1 X42.024 Y101.513 E.03601
G1 X33.657 Y77.219 E.80563
G1 X33.508 Y75.977 E.03922
G1 X33.508 Y66.056 E.31107
G1 X33.582 Y65.348 E.02232
M73 P2 R23
M73 Q2 S23
G1 X33.788 Y64.659 E.02255
G1 X34.305 Y63.757 E.0326
G1 X35.012 Y63.062 E.03108
M204 S1000
; printing object 3dp tools lettering.STL id:0 copy 0
;WIPE_START
G1 F8640
G1 X35.969 Y62.517 E-.25429
G1 X36.99 Y62.278 E-.24212
G1 X38.305 Y62.277 E-.30359
;WIPE_END
G1 Z.6 F720
G1 X51.724 Y89.985 F10800
G1 Z.2 F720
G1 E.8 F2100
M204 S800
;TYPE:Perimeter
;WIDTH:0.419999
G1 F1200
G1 X52.106 Y90.243 E.01445
G1 X52.568 Y90.389 E.01519
G1 X52.961 Y90.421 E.01236
G1 X53.163 Y90.486 E.00665
G1 X53.228 Y90.702 E.00707
G1 X53.228 Y100.342 E.30225
G1 X53.17 Y100.534 E.00629
G1 X53.016 Y100.601 E.00527
G1 X45.256 Y100.602 E.24331
G1 X45.066 Y100.541 E.00626
G1 X45.003 Y100.39 E.00513
G1 X45.002 Y90.676 E.30458
G1 X45.033 Y90.528 E.00474
G1 X45.165 Y90.426 E.00523
G1 X45.692 Y90.383 E.01658
G1 X46.156 Y90.227 E.01535
G1 X46.567 Y89.95 E.01554
G1 X46.895 Y89.544 E.01636
G1 X47.099 Y89.018 E.01769
G1 X47.761 Y85.718 E.10553
G1 X47.81 Y85.598 E.00406
G1 X47.978 Y85.517 E.00585
G1 X50.212 Y85.516 E.07005
G1 X50.327 Y85.531 E.00364
G1 X50.444 Y85.641 E.00504
G1 X51.13 Y89.019 E.10808
G1 X51.332 Y89.526 E.01711
G1 X51.675 Y89.951 E.01712
M204 S1000
G1 X51.967 Y89.707 F10800
M204 S800
;TYPE:External perimeter
G1 F1200
G1 X52.303 Y89.921 E.01249
G1 X52.664 Y90.024 E.01177
G1 X53.137 Y90.052 E.01486
G1 X53.413 Y90.189 E.00966
G1 X53.549 Y90.374 E.0072
G1 X53.605 Y90.702 E.01043
G1 X53.605 Y100.342 E.30225
G1 X53.597 Y100.441 E.00311
G1 X53.5 Y100.734 E.00968
G1 X53.311 Y100.897 E.00783
G1 X53.054 Y100.978 E.00845
G1 X45.256 Y100.979 E.2445
G1 X45.154 Y100.971 E.00321
G1 X44.865 Y100.871 E.00959
G1 X44.704 Y100.682 E.00778
G1 X44.626 Y100.429 E.0083
G1 X44.625 Y91.294 E.28642
G1 X44.64 Y90.532 E.0239
G1 X44.751 Y90.256 E.00933
G1 X44.999 Y90.086 E.00943
G1 X45.549 Y90.027 E.01734
G1 X45.9 Y89.933 E.01139
G1 X46.283 Y89.695 E.01414
G1 X46.562 Y89.363 E.0136
G1 X46.73 Y88.943 E.01418
G1 X47.391 Y85.644 E.10549
G1 X47.47 Y85.419 E.00748
G1 X47.658 Y85.239 E.00816
G1 X47.935 Y85.14 E.00922
G1 X50.212 Y85.139 E.07139
G1 X50.442 Y85.167 E.00726
G1 X50.652 Y85.296 E.00773
G1 X50.801 Y85.507 E.0081
G1 X51.498 Y88.936 E.10971
G1 X51.679 Y89.38 E.01503
G1 X51.922 Y89.669 E.01184
M204 S1000
G1 X51.889 Y90.098 F10800
;WIPE_START
G1 F8640
G1 X52.303 Y89.921 E-.10548
G1 X52.664 Y90.024 E-.08668
G1 X53.137 Y90.052 E-.10941
G1 X53.413 Y90.189 E-.07115
G1 X53.549 Y90.374 E-.05302
G1 X53.605 Y90.702 E-.07683
G1 X53.605 Y91.99 E-.29743
;WIPE_END
G1 Z.6 F720
G1 X49.511 Y85.691 F10800
G1 Z.2 F720
G1 E.8 F2100
M204 S800
;TYPE:Solid infill
;WIDTH:0.423413
G1 F1200
G1 X50.26 Y86.439 E.03349
G1 X50.397 Y87.114 E.02179
G1 X49.145 Y85.862 E.05602
G1 X48.61 Y85.865 E.01693
G1 X50.534 Y87.789 E.08609
G1 X50.671 Y88.465 E.02182
G1 X48.081 Y85.874 E.11591
G1 X47.99 Y86.322 E.01446
G1 X50.816 Y89.147 E.12642
G1 X51.075 Y89.772 E.0214
G1 X51.46 Y90.226 E.01883
G1 X51.937 Y90.538 E.01803
G1 X52.16 Y90.633 E.00767
G1 X52.351 Y90.682 E.00624
G1 X52.888 Y91.219 E.02403
G1 X52.887 Y91.757 E.01702
G1 X47.9 Y86.769 E.22316
G1 X47.809 Y87.217 E.01446
G1 X52.887 Y92.294 E.22718
G1 X52.886 Y92.832 E.01702
G1 X47.719 Y87.665 E.23119
G1 X47.629 Y88.112 E.01443
G1 X52.886 Y93.37 E.23524
G1 X52.885 Y93.907 E.01699
G1 X47.538 Y88.56 E.23924
G1 X47.448 Y89.008 E.01446
G1 X52.885 Y94.445 E.24327
G1 X52.884 Y94.982 E.01699
G1 X47.316 Y89.414 E.24913
G1 X47.258 Y89.575 E.00541
G1 X47.141 Y89.777 E.00739
G1 X52.884 Y95.52 E.25696
G1 X52.883 Y96.058 E.01702
G1 X46.9 Y90.075 E.2677
G1 X46.799 Y90.2 E.00508
G1 X46.614 Y90.326 E.00708
G1 X52.883 Y96.595 E.28049
G1 X52.882 Y97.133 E.01702
G1 X46.287 Y90.537 E.2951
G1 X46.104 Y90.62 E.00636
G1 X45.891 Y90.68 E.007
G1 X52.882 Y97.67 E.31278
G1 X52.881 Y98.208 E.01702
G1 X45.421 Y90.748 E.33378
G1 X45.349 Y90.755 E.00229
G1 X45.349 Y91.214 E.01452
G1 X52.881 Y98.746 E.337
G1 X52.88 Y99.283 E.01699
G1 X45.349 Y91.752 E.33696
G1 X45.349 Y92.29 E.01702
G1 X52.88 Y99.821 E.33696
G1 X52.879 Y100.255 E.01373
M73 P3 R23
M73 Q3 S23
G1 X52.776 Y100.255 E.00326
G1 X45.349 Y92.829 E.33228
G1 X45.349 Y93.367 E.01702
G1 X52.237 Y100.255 E.30819
G1 X51.699 Y100.255 E.01702
G1 X45.349 Y93.905 E.28412
G1 X45.349 Y94.443 E.01702
G1 X51.161 Y100.255 E.26005
G1 X50.623 Y100.254 E.01702
G1 X45.349 Y94.981 E.23595
G1 X45.349 Y95.519 E.01702
G1 X50.085 Y100.254 E.21188
G1 X49.547 Y100.254 E.01702
G1 X45.349 Y96.057 E.18781
G1 X45.349 Y96.595 E.01702
G1 X49.008 Y100.254 E.16371
G1 X48.47 Y100.254 E.01702
G1 X45.349 Y97.133 E.13964
G1 X45.349 Y97.671 E.01702
G1 X47.932 Y100.254 E.11557
G1 X47.394 Y100.254 E.01702
G1 X45.349 Y98.21 E.09148
G1 X45.349 Y98.748 E.01702
G1 X46.856 Y100.254 E.06741
G1 X46.318 Y100.254 E.01702
G1 X45.349 Y99.286 E.04333
G1 X45.349 Y99.824 E.01702
G1 X45.949 Y100.424 E.02685
M204 S1000
;WIPE_START
G1 F8640
G1 X45.349 Y99.824 E-.19593
G1 X45.349 Y99.286 E-.12423
G1 X46.318 Y100.254 E-.31626
G1 X46.856 Y100.254 E-.12423
G1 X46.735 Y100.134 E-.03935
;WIPE_END
G1 Z.6 F720
G1 X38.103 Y73.597 F10800
G1 Z.2 F720
G1 E.8 F2100
M204 S800
;TYPE:Perimeter
;WIDTH:0.419999
G1 F1200
G1 X38.038 Y73.93 E.01064
G1 X38.044 Y76.009 E.06519
G1 X38.098 Y76.28 E.00866
G1 X38.273 Y76.642 E.01261
G1 X38.523 Y76.907 E.01142
G1 X38.861 Y77.101 E.01222
G1 X39.311 Y77.186 E.01436
G1 X47.159 Y77.194 E.24607
G1 X47.433 Y77.208 E.0086
G1 X47.948 Y77.317 E.01651
G1 X48.456 Y77.532 E.0173
G1 X48.926 Y77.883 E.01839
G1 X49.308 Y78.301 E.01775
G1 X49.579 Y78.782 E.01731
G1 X49.732 Y79.258 E.01568
G1 X49.798 Y79.833 E.01815
G1 X49.798 Y81.254 E.04455
G1 X49.782 Y81.438 E.00579
G1 X49.663 Y81.706 E.00919
G1 X49.344 Y81.934 E.01229
G1 X49.081 Y81.972 E.00833
G1 X48.86 Y81.926 E.00708
G1 X48.571 Y81.712 E.01128
G1 X48.44 Y81.376 E.01131
G1 X48.428 Y79.752 E.05092
G1 X48.271 Y79.208 E.01775
G1 X47.954 Y78.845 E.01511
G1 X47.639 Y78.648 E.01165
G1 X47.158 Y78.552 E.01538
G1 X39.339 Y78.552 E.24516
G1 X38.915 Y78.519 E.01333
G1 X38.331 Y78.358 E.01899
G1 X37.81 Y78.077 E.01856
G1 X37.362 Y77.684 E.01869
G1 X37.014 Y77.202 E.01864
G1 X36.783 Y76.653 E.01868
G1 X36.68 Y76.08 E.01825
G1 X36.674 Y73.88 E.06898
G1 X36.773 Y73.233 E.02052
G1 X36.929 Y72.844 E.01314
G1 X37.265 Y72.302 E.01999
G1 X37.715 Y71.852 E.01995
G1 X38.205 Y71.551 E.01803
G1 X38.715 Y71.384 E.01683
G1 X39.312 Y71.306 E.01888
G1 X58.94 Y71.306 E.61542
G1 X59.429 Y71.198 E.0157
G1 X59.839 Y70.911 E.01569
G1 X60.107 Y70.483 E.01583
G1 X60.192 Y70.042 E.01408
G1 X60.19 Y68.018 E.06346
G1 X60.058 Y67.502 E.0167
G1 X59.89 Y67.25 E.0095
G1 X59.608 Y67 E.01182
G1 X59.407 Y66.901 E.00703
G1 X58.917 Y66.792 E.01574
G1 X37.419 Y66.784 E.67405
G1 X37.182 Y66.756 E.00748
G1 X36.891 Y66.606 E.01026
G1 X36.733 Y66.359 E.00919
G1 X36.682 Y66.029 E.01047
G1 X36.786 Y65.753 E.00925
G1 X37.02 Y65.516 E.01044
G1 X37.374 Y65.426 E.01145
G1 X58.88 Y65.426 E.6743
G1 X59.394 Y65.472 E.01618
M73 P3 R22
G1 X59.889 Y65.619 E.01619
G1 X60.417 Y65.91 E.0189
G1 X60.804 Y66.24 E.01595
G1 X61.138 Y66.661 E.01685
G1 X61.383 Y67.146 E.01704
G1 X61.507 Y67.594 E.01457
G1 X61.557 Y68.068 E.01494
G1 X61.555 Y70.044 E.06196
G1 X61.488 Y70.581 E.01697
G1 X61.256 Y71.232 E.02167
G1 X60.965 Y71.682 E.0168
G1 X60.6 Y72.053 E.01632
G1 X60.143 Y72.359 E.01724
G1 X59.622 Y72.563 E.01754
G1 X58.926 Y72.672 E.02209
G1 X39.234 Y72.675 E.61743
G1 X38.825 Y72.775 E.0132
G1 X38.384 Y73.075 E.01672
G1 X38.115 Y73.538 E.01679
M204 S1000
G1 X38.52 Y73.586 F10800
M204 S800
;TYPE:External perimeter
G1 F1200
G1 X38.458 Y73.688 E.00374
G1 X38.415 Y73.93 E.00771
G1 X38.421 Y76.008 E.06515
G1 X38.462 Y76.181 E.00557
G1 X38.598 Y76.451 E.00948
G1 X38.78 Y76.631 E.00803
G1 X39.005 Y76.753 E.00803
G1 X39.311 Y76.809 E.00975
G1 X47.159 Y76.816 E.24607
G1 X47.526 Y76.84 E.01153
G1 X48.154 Y76.985 E.02021
G1 X48.652 Y77.207 E.0171
G1 X49.244 Y77.65 E.02318
G1 X49.618 Y78.083 E.01794
G1 X49.926 Y78.63 E.01968
G1 X50.103 Y79.178 E.01806
G1 X50.175 Y79.812 E.02001
G1 X50.175 Y81.309 E.04694
G1 X50.084 Y81.733 E.0136
G1 X49.829 Y82.085 E.01363
G1 X49.472 Y82.296 E.013
G1 X49.069 Y82.355 E.01277
G1 X48.716 Y82.281 E.01131
G1 X48.387 Y82.073 E.0122
G1 X48.194 Y81.811 E.0102
G1 X48.063 Y81.424 E.01281
G1 X48.055 Y79.877 E.04851
G1 X47.96 Y79.437 E.01411
G1 X47.678 Y79.102 E.01373
G1 X47.48 Y78.991 E.00712
G1 X47.158 Y78.929 E.01028
G1 X39.339 Y78.929 E.24516
G1 X38.848 Y78.892 E.01544
G1 X38.19 Y78.71 E.02141
G1 X37.593 Y78.389 E.02125
G1 X37.081 Y77.939 E.02137
G1 X36.683 Y77.388 E.02131
G1 X36.419 Y76.761 E.02133
G1 X36.303 Y76.114 E.02061
M73 P4 R22
G1 X36.297 Y73.852 E.07092
M73 Q4 S23
G1 X36.391 Y73.237 E.01951
G1 X36.531 Y72.78 E.01499
G1 X36.898 Y72.141 E.0231
G1 X37.34 Y71.679 E.02005
G1 X37.759 Y71.365 E.01642
G1 X38.256 Y71.126 E.01729
G1 X38.74 Y70.99 E.01576
G1 X39.296 Y70.929 E.01754
G1 X58.907 Y70.928 E.61489
G1 X59.245 Y70.863 E.01079
G1 X59.533 Y70.68 E.0107
G1 X59.727 Y70.411 E.0104
G1 X59.815 Y70.042 E.01189
G1 X59.815 Y68.067 E.06192
G1 X59.727 Y67.699 E.01186
G1 X59.586 Y67.473 E.00835
G1 X59.378 Y67.299 E.0085
G1 X58.917 Y67.169 E.01502
M73 Q4 S22
G1 X37.23 Y67.161 E.67998
G1 X36.913 Y67.073 E.01032
G1 X36.633 Y66.887 E.01054
G1 X36.436 Y66.64 E.00991
G1 X36.32 Y66.336 E.0102
G1 X36.303 Y65.99 E.01086
G1 X36.383 Y65.684 E.00992
G1 X36.563 Y65.402 E.01049
G1 X36.693 Y65.296 E.00526
G1 X36.959 Y65.134 E.00977
G1 X37.348 Y65.049 E.01248
G1 X58.88 Y65.049 E.67512
G1 X59.37 Y65.091 E.01542
G1 X59.877 Y65.214 E.01636
G1 X60.354 Y65.423 E.01633
G1 X60.808 Y65.726 E.01711
G1 X61.203 Y66.11 E.01727
G1 X61.508 Y66.536 E.01643
G1 X61.734 Y67.006 E.01635
G1 X61.878 Y67.52 E.01674
G1 X61.934 Y68.068 E.01727
G1 X61.932 Y70.095 E.06356
G1 X61.88 Y70.597 E.01582
G1 X61.642 Y71.324 E.02398
G1 X61.316 Y71.858 E.01962
G1 X60.906 Y72.298 E.01886
G1 X60.482 Y72.598 E.01629
G1 X59.942 Y72.858 E.01879
G1 X59.436 Y72.988 E.01638
G1 X58.937 Y73.049 E.01576
G1 X39.342 Y73.049 E.61439
G1 X39.063 Y73.086 E.00882
G1 X38.691 Y73.307 E.01357
G1 X38.551 Y73.535 E.00839
M204 S1000
G1 X38.402 Y73.573 F10800
;WIPE_START
G1 F8640
G1 X38.458 Y73.688 E-.04134
G1 X38.415 Y73.93 E-.05675
G1 X38.421 Y76.008 E-.47982
G1 X38.462 Y76.181 E-.04105
G1 X38.598 Y76.451 E-.06981
G1 X38.78 Y76.631 E-.05911
G1 X38.978 Y76.739 E-.05212
;WIPE_END
G1 Z.6 F720
G1 X59.899 Y65.812 F10800
G1 Z.2 F720
G1 E.8 F2100
M204 S800
;TYPE:Solid infill
;WIDTH:0.4237
G1 F1200
G1 X60.709 Y66.629 E.03643
G1 X60.93 Y66.959 E.01258
G1 X61.091 Y67.324 E.01263
G1 X61.163 Y67.614 E.00946
G1 X59.365 Y65.816 E.08051
G1 X58.776 Y65.765 E.01872
G1 X61.218 Y68.208 E.10937
G1 X61.217 Y68.745 E.017
G1 X60.531 Y68.06 E.03069
G1 X60.531 Y68.598 E.01703
G1 X61.216 Y69.283 E.03067
G1 X61.216 Y69.821 E.01703
G1 X60.531 Y69.136 E.03067
G1 X60.531 Y69.675 E.01707
G1 X61.19 Y70.333 E.02949
G1 X61.177 Y70.442 E.00348
G1 X61.074 Y70.756 E.01046
G1 X60.51 Y70.192 E.02525
G1 X60.411 Y70.632 E.01428
G1 X60.916 Y71.137 E.02261
G1 X60.704 Y71.464 E.01234
G1 X60.214 Y70.973 E.02196
G1 X60.086 Y71.144 E.00676
G1 X59.958 Y71.256 E.00539
G1 X60.445 Y71.742 E.02178
G1 X60.132 Y71.968 E.01222
G1 X59.632 Y71.468 E.02239
G1 X59.565 Y71.511 E.00252
G1 X59.221 Y71.596 E.01122
G1 X59.775 Y72.15 E.02481
G1 X59.623 Y72.216 E.00525
G1 X59.358 Y72.272 E.00858
G1 X58.727 Y71.64 E.02828
G1 X58.188 Y71.64 E.01707
G1 X58.88 Y72.332 E.03099
G1 X58.342 Y72.332 E.01703
G1 X57.65 Y71.64 E.03099
G1 X57.112 Y71.64 E.01703
G1 X57.803 Y72.332 E.03096
G1 X57.265 Y72.332 E.01703
G1 X56.573 Y71.641 E.03096
G1 X56.035 Y71.641 E.01703
G1 X56.726 Y72.332 E.03094
G1 X56.188 Y72.332 E.01703
G1 X55.496 Y71.641 E.03096
G1 X54.958 Y71.641 E.01703
G1 X55.649 Y72.332 E.03094
G1 X55.111 Y72.332 E.01703
G1 X54.42 Y71.641 E.03094
G1 X53.881 Y71.641 E.01707
G1 X54.573 Y72.332 E.03096
G1 X54.034 Y72.332 E.01707
G1 X53.343 Y71.642 E.03092
G1 X52.805 Y71.642 E.01703
G1 X53.496 Y72.333 E.03094
G1 X52.957 Y72.333 E.01707
G1 X52.266 Y71.642 E.03094
G1 X51.728 Y71.642 E.01703
G1 X52.419 Y72.333 E.03094
G1 X51.88 Y72.333 E.01707
G1 X51.19 Y71.642 E.03092
G1 X50.651 Y71.642 E.01707
G1 X51.342 Y72.333 E.03094
G1 X50.803 Y72.333 E.01707
G1 X50.113 Y71.642 E.03092
G1 X49.575 Y71.643 E.01703
G1 X50.265 Y72.333 E.0309
G1 X49.726 Y72.333 E.01707
G1 X49.036 Y71.643 E.0309
G1 X48.498 Y71.643 E.01703
G1 X49.188 Y72.333 E.0309
G1 X48.649 Y72.333 E.01707
G1 X47.96 Y71.643 E.03087
G1 X47.421 Y71.643 E.01707
G1 X48.111 Y72.333 E.0309
G1 X47.572 Y72.333 E.01707
G1 X46.883 Y71.643 E.03087
G1 X46.344 Y71.643 E.01707
G1 X47.034 Y72.333 E.0309
G1 X46.495 Y72.333 E.01707
G1 X45.806 Y71.644 E.03085
G1 X45.268 Y71.644 E.01703
G1 X45.957 Y72.333 E.03085
G1 X45.418 Y72.333 E.01707
G1 X44.729 Y71.644 E.03085
G1 X44.191 Y71.644 E.01703
G1 X44.88 Y72.333 E.03085
G1 X44.341 Y72.333 E.01707
G1 X43.653 Y71.644 E.03083
G1 X43.114 Y71.644 E.01707
G1 X43.803 Y72.333 E.03085
G1 X43.264 Y72.333 E.01707
G1 X42.576 Y71.645 E.03081
G1 X42.038 Y71.645 E.01703
G1 X42.726 Y72.333 E.03081
G1 X42.187 Y72.333 E.01707
G1 X41.499 Y71.645 E.03081
G1 X40.961 Y71.645 E.01703
G1 X41.649 Y72.333 E.03081
G1 X41.11 Y72.333 E.01707
G1 X40.423 Y71.645 E.03078
G1 X39.884 Y71.645 E.01707
G1 X40.572 Y72.333 E.03081
