; generated by PrusaSlicer 2.6.1+win64 on 2024-03-09 at 17:43:05 UTC


;
;
; 

; external perimeters extrusion width = 0.45mm
; perimeters extrusion width = 0.45mm
; infill extrusion width = 0.45mm
; solid infill extrusion width = 0.45mm
; top infill extrusion width = 0.40mm
; first layer extrusion width = 0.42mm

M73 P0 R18
M73 Q0 S18
M201 X1000 Y1000 Z200 E5000 ; sets maximum accelerations, mm/sec^2
M203 X200 Y200 Z12 E120 ; sets maximum feedrates, mm / sec
M204 S1250 T1250 ; sets acceleration (S) and retract acceleration (R), mm/sec^2
M205 X8.00 Y8.00 Z0.40 E4.50 ; sets the jerk limits, mm/sec
M205 S0 T0 ; sets the minimum extruding and travel feed rate, mm/sec
;TYPE:Custom
M862.3 P "MK3S" ; printer model check
M862.1 P0.4 ; nozzle diameter check
M115 U3.12.2 ; tell printer latest fw version
G90 ; use absolute coordinates
M83 ; extruder relative mode
M104 S215 ; set extruder temp
M140 S60 ; set bed temp
M190 S60 ; wait for bed temp
M109 S215 ; wait for extruder temp
G28 W ; home all without mesh bed level
G80 ; mesh bed leveling

G1 Z0.2 F720
G1 Y-3 F1000 ; go outside print area
G92 E0
G1 X60 E9 F1000 ; intro line
G1 X100 E12.5 F1000 ; intro line

G92 E0
M221 S95

; Don't change E values below. Excessive value can damage the printer.
M907 E430 ; set extruder motor current
G21 ; set units to millimeters
G90 ; use absolute coordinates
M83 ; use relative distances for extrusion
M900 K0.05 ; Filament gcode LA 1.5
M900 K30 ; Filament gcode LA 1.0
M107
;LAYER_CHANGE
;Z:0.2
;HEIGHT:0.2
;BEFORE_LAYER_CHANGE
G92 E0.0
;0.2


G1 E-.8 F2100
G1 Z.4 F720
;AFTER_LAYER_CHANGE
;0.2
G1 X99.919 Y97.659 F10800
G1 Z.2 F720
G1 E.8 F2100
M204 S800
;TYPE:Skirt/Brim
;WIDTH:0.42
G1 F1200
G1 X100.515 Y97.149 E.02459
G1 X101.485 Y96.519 E.03627
G1 X102.897 Y95.934 E.04792
G1 X104.03 Y95.691 E.03633
G1 X105 Y95.622 E.03049
G1 X145.188 Y95.629 E1.26007
G1 X146.34 Y95.75 E.03632
G1 X147.452 Y96.048 E.0361
G1 X148.178 Y96.348 E.02463
G1 X149.182 Y96.929 E.03637
G1 X150.08 Y97.659 E.03629
G1 X150.85 Y98.516 E.03612
G1 X151.48 Y99.486 E.03627
G1 X151.951 Y100.547 E.0364
G1 X152.308 Y102.029 E.0478
G1 X152.377 Y102.999 E.03049
G1 X152.368 Y107.206 E.13191
G1 X152.22 Y108.485 E.04037
G1 X151.85 Y109.721 E.04045
G1 X151.48 Y110.509 E.0273
G1 X150.78 Y111.573 E.03993
G1 X149.898 Y112.509 E.04032
G1 X148.86 Y113.279 E.04052
G1 X147.326 Y113.995 E.05308
G1 X146.07 Y114.293 E.04047
G1 X145 Y114.376 E.03365
M73 Q1 S18
G1 X105 Y114.376 E1.25417
G1 X103.923 Y114.293 E.03387
M73 P1 R18
G1 X102.278 Y113.851 E.05341
G1 X101.14 Y113.279 E.03993
G1 X100.105 Y112.512 E.04039
G1 X99.487 Y111.894 E.0274
G1 X98.72 Y110.859 E.04039
G1 X98.004 Y109.327 E.05302
G1 X97.705 Y108.07 E.04051
G1 X97.631 Y107.2 E.02738
G1 X97.623 Y102.999 E.13172
G1 X97.749 Y101.659 E.0422
G1 X98.047 Y100.547 E.0361
G1 X98.347 Y99.821 E.02463
G1 X98.928 Y98.818 E.03634
G1 X99.88 Y97.705 E.04592
M204 S1000
; printing object skadis 2xconnector.STL id:0 copy 0
;WIPE_START
G1 F8640
G1 X100.515 Y97.149 E-.19489
G1 X101.485 Y96.519 E-.26707
G1 X102.838 Y95.959 E-.33804
;WIPE_END
G1 Z.6 F720
G1 X147.706 Y110.226 F10800
G1 Z.2 F720
G1 E.8 F2100
M204 S800
;TYPE:Perimeter
;WIDTH:0.419999
G1 F1200
G1 X147.105 Y110.645 E.02297
G1 X146.439 Y110.957 E.02306
G1 X145.731 Y111.147 E.02298
G1 X144.967 Y111.212 E.02404
G1 X105.033 Y111.212 E1.2521
G1 X104.266 Y111.147 E.02413
G1 X103.559 Y110.957 E.02295
G1 X102.895 Y110.645 E.023
G1 X102.293 Y110.225 E.02302
G1 X101.774 Y109.706 E.02301
G1 X101.354 Y109.104 E.02302
G1 X101.042 Y108.44 E.023
G1 X100.852 Y107.733 E.02295
G1 X100.787 Y106.966 E.02413
G1 X100.787 Y103.029 E.12344
G1 X100.84 Y102.34 E.02167
G1 X100.995 Y101.699 E.02068
G1 X101.248 Y101.087 E.02076
G1 X101.592 Y100.526 E.02063
G1 X102.022 Y100.023 E.02075
G1 X102.525 Y99.593 E.02075
G1 X103.086 Y99.249 E.02063
G1 X103.698 Y98.996 E.02076
G1 X104.342 Y98.841 E.02077
G1 X105.031 Y98.786 E.02167
G1 X144.969 Y98.786 E1.25223
G1 X145.658 Y98.841 E.02167
G1 X146.3 Y98.996 E.02071
G1 X146.912 Y99.249 E.02076
G1 X147.473 Y99.593 E.02063
G1 X147.976 Y100.023 E.02075
G1 X148.406 Y100.526 E.02075
G1 X148.75 Y101.087 E.02063
G1 X149.003 Y101.699 E.02076
G1 X149.158 Y102.341 E.02071
G1 X149.213 Y103.205 E.02714
G1 X149.213 Y106.965 E.11789
G1 X149.146 Y107.732 E.02414
G1 X148.956 Y108.44 E.02298
G1 X148.644 Y109.104 E.023
G1 X148.224 Y109.706 E.02302
G1 X147.748 Y110.183 E.02113
M204 S1000
G1 X147.949 Y110.516 F10800
M204 S800
;TYPE:External perimeter
G1 F1200
G1 X147.294 Y110.973 E.02504
G1 X146.569 Y111.312 E.02509
G1 X145.797 Y111.52 E.02507
G1 X144.983 Y111.589 E.02561
G1 X105.017 Y111.589 E1.2531
G1 X104.201 Y111.52 E.02568
M73 P2 R18
M73 Q2 S18
G1 X103.429 Y111.312 E.02507
G1 X102.706 Y110.973 E.02504
G1 X102.05 Y110.515 E.02509
G1 X101.484 Y109.949 E.0251
G1 X101.026 Y109.293 E.02509
G1 X100.687 Y108.57 E.02504
G1 X100.479 Y107.798 E.02507
G1 X100.41 Y106.982 E.02568
G1 X100.41 Y103.015 E.12438
G1 X100.466 Y102.281 E.02308
G1 X100.635 Y101.582 E.02255
G1 X100.91 Y100.916 E.02259
G1 X101.287 Y100.303 E.02256
G1 X101.755 Y99.756 E.02257
G1 X102.302 Y99.288 E.02257
G1 X102.915 Y98.911 E.02256
G1 X103.581 Y98.636 E.02259
G1 X104.283 Y98.467 E.02264
G1 X105.016 Y98.409 E.02305
G1 X144.984 Y98.409 E1.25317
G1 X145.717 Y98.467 E.02305
M73 P2 R17
G1 X146.417 Y98.636 E.02258
G1 X147.083 Y98.911 E.02259
G1 X147.696 Y99.288 E.02256
G1 X148.243 Y99.756 E.02257
G1 X148.711 Y100.303 E.02257
G1 X149.088 Y100.916 E.02256
G1 X149.363 Y101.582 E.02259
G1 X149.532 Y102.282 E.02258
G1 X149.59 Y103.205 E.029
G1 X149.59 Y106.981 E.11839
G1 X149.519 Y107.797 E.02568
G1 X149.311 Y108.57 E.0251
G1 X148.972 Y109.293 E.02504
G1 X148.514 Y109.949 E.02509
G1 X147.992 Y110.473 E.02319
M204 S1000
G1 X147.574 Y110.379 F10800
;WIPE_START
G1 F8640
G1 X147.294 Y110.973 E-.19825
G1 X146.569 Y111.312 E-.1848
G1 X145.797 Y111.52 E-.18461
G1 X144.983 Y111.589 E-.18863
G1 X144.794 Y111.589 E-.04371
;WIPE_END
G1 Z.6 F720
G1 X134.281 Y105 F10800
G1 Z.2 F720
G1 E.8 F2100
M204 S800
;TYPE:Perimeter
G1 F1200
G1 X134.238 Y105.485 E.01527
G1 X134.115 Y105.916 E.01405
G1 X133.921 Y106.309 E.01374
G1 X133.66 Y106.668 E.01392
G1 X133.34 Y106.976 E.01393
G1 X132.976 Y107.219 E.01372
G1 X132.568 Y107.401 E.01401
G1 X132.143 Y107.505 E.01372
G1 X131.696 Y107.537 E.01405
G1 X131.263 Y107.489 E.01366
G1 X130.833 Y107.366 E.01402
G1 X130.44 Y107.172 E.01374
G1 X130.081 Y106.911 E.01392
G1 X129.773 Y106.591 E.01393
G1 X129.53 Y106.227 E.01372
G1 X129.348 Y105.819 E.01401
G1 X129.243 Y105.39 E.01385
G1 X129.217 Y104.922 E.0147
G1 X129.297 Y104.373 E.0174
G1 X129.383 Y104.084 E.00945
G1 X129.577 Y103.691 E.01374
G1 X129.838 Y103.332 E.01392
G1 X130.158 Y103.024 E.01393
G1 X130.522 Y102.781 E.01372
G1 X130.93 Y102.599 E.01401
G1 X131.359 Y102.494 E.01385
G1 X131.764 Y102.467 E.01273
G1 X132.234 Y102.511 E.0148
G1 X132.665 Y102.634 E.01405
G1 X133.058 Y102.828 E.01374
G1 X133.417 Y103.089 E.01392
G1 X133.725 Y103.409 E.01393
G1 X133.968 Y103.773 E.01372
G1 X134.15 Y104.18 E.01398
G1 X134.255 Y104.609 E.01385
G1 X134.277 Y104.94 E.0104
M204 S1000
G1 X133.904 Y104.962 F10800
M204 S800
;TYPE:External perimeter
G1 F1200
G1 X133.873 Y105.389 E.01342
G1 X133.774 Y105.755 E.01189
G1 X133.611 Y106.094 E.01179
G1 X133.394 Y106.401 E.01179
G1 X133.124 Y106.666 E.01186
G1 X132.816 Y106.878 E.01172
G1 X132.472 Y107.036 E.01187
G1 X132.108 Y107.13 E.01179
G1 X131.731 Y107.161 E.01186
G1 X131.359 Y107.124 E.01172
G1 X130.994 Y107.025 E.01186
G1 X130.655 Y106.862 E.01179
G1 X130.348 Y106.645 E.01179
G1 X130.083 Y106.375 E.01186
G1 X129.871 Y106.067 E.01172
G1 X129.663 Y105.536 E.01788
G1 X129.591 Y105.026 E.01615
G1 X129.662 Y104.47 E.01757
G1 X129.871 Y103.933 E.01807
G1 X130.104 Y103.599 E.01277
G1 X130.374 Y103.334 E.01186
G1 X130.682 Y103.122 E.01172
G1 X131.026 Y102.964 E.01187
G1 X131.392 Y102.87 E.01185
G1 X131.736 Y102.843 E.01082
G1 X132.138 Y102.876 E.01265
G1 X132.504 Y102.975 E.01189
G1 X132.843 Y103.138 E.01179
G1 X133.15 Y103.355 E.01179
G1 X133.415 Y103.625 E.01186
G1 X133.627 Y103.933 E.01172
G1 X133.785 Y104.276 E.01184
G1 X133.879 Y104.641 E.01182
G1 X133.899 Y104.903 E.00824
M204 S1000
G1 X134.252 Y105.159 F10800
;WIPE_START
G1 F8640
G1 X133.873 Y105.389 E-.11238
G1 X133.774 Y105.755 E-.08755
G1 X133.611 Y106.094 E-.08685
G1 X133.394 Y106.401 E-.08681
G1 X133.124 Y106.666 E-.08735
G1 X132.816 Y106.878 E-.08634
G1 X132.472 Y107.036 E-.08741
G1 X132.108 Y107.13 E-.08681
G1 X131.769 Y107.158 E-.0785
;WIPE_END
G1 Z.6 F720
G1 X116.981 Y102.808 F10800
G1 Z.2 F720
G1 E.8 F2100
M204 S800
;TYPE:Perimeter
G1 F1200
G1 X117.429 Y102.599 E.0155
G1 X117.858 Y102.494 E.01385
G1 X118.266 Y102.467 E.01282
G1 X118.734 Y102.511 E.01474
G1 X119.165 Y102.634 E.01405
G1 X119.558 Y102.828 E.01374
G1 X119.917 Y103.089 E.01392
G1 X120.225 Y103.409 E.01393
G1 X120.468 Y103.773 E.01372
G1 X120.65 Y104.18 E.01398
G1 X120.757 Y104.637 E.01472
G1 X120.786 Y105.053 E.01308
G1 X120.699 Y105.632 E.01836
G1 X120.615 Y105.916 E.00929
G1 X120.421 Y106.309 E.01374
G1 X120.16 Y106.668 E.01392
G1 X119.84 Y106.976 E.01393
G1 X119.476 Y107.219 E.01372
G1 X119.068 Y107.401 E.01401
G1 X118.643 Y107.505 E.01372
M73 Q2 S17
G1 X118.199 Y107.537 E.01396
G1 X117.76 Y107.489 E.01385
G1 X117.333 Y107.366 E.01393
G1 X116.94 Y107.172 E.01374
G1 X116.581 Y106.911 E.01392
G1 X116.273 Y106.591 E.01393
G1 X116.03 Y106.227 E.01372
G1 X115.848 Y105.819 E.01401
G1 X115.743 Y105.39 E.01385
G1 X115.714 Y104.953 E.01373
G1 X115.76 Y104.512 E.0139
G1 X115.883 Y104.084 E.01396
G1 X116.077 Y103.691 E.01374
G1 X116.338 Y103.332 E.01392
G1 X116.658 Y103.024 E.01393
G1 X116.931 Y102.841 E.0103
M204 S1000
G1 X117.239 Y103.096 F10800
M204 S800
;TYPE:External perimeter
G1 F1200
G1 X117.525 Y102.964 E.00988
G1 X117.89 Y102.87 E.01182
G1 X118.238 Y102.843 E.01094
G1 X118.638 Y102.876 E.01258
G1 X119.004 Y102.975 E.01189
G1 X119.343 Y103.138 E.01179
G1 X119.65 Y103.355 E.01179
G1 X119.915 Y103.625 E.01186
G1 X120.127 Y103.933 E.01172
G1 X120.336 Y104.47 E.01807
G1 X120.41 Y104.984 E.01628
G1 X120.335 Y105.536 E.01747
G1 X120.127 Y106.067 E.01788
G1 X119.894 Y106.401 E.01277
G1 X119.624 Y106.666 E.01186
G1 X119.316 Y106.878 E.01172
G1 X118.972 Y107.036 E.01187
G1 X118.608 Y107.13 E.01179
G1 X118.233 Y107.161 E.0118
G1 X117.857 Y107.124 E.01185
G1 X117.493 Y107.024 E.01184
G1 X117.155 Y106.862 E.01175
G1 X116.848 Y106.645 E.01179
G1 X116.583 Y106.375 E.01186
G1 X116.371 Y106.067 E.01172
G1 X116.213 Y105.723 E.01187
G1 X116.119 Y105.357 E.01185
G1 X116.09 Y104.985 E.0117
G1 X116.125 Y104.609 E.01184
G1 X116.225 Y104.244 E.01187
G1 X116.387 Y103.906 E.01175
G1 X116.604 Y103.599 E.01179
G1 X116.874 Y103.334 E.01186
G1 X117.185 Y103.121 E.01182
M204 S1000
G1 X117.243 Y102.781 F10800
;WIPE_START
G1 F8640
G1 X117.525 Y102.964 E-.08647
G1 X117.89 Y102.87 E-.08703
G1 X118.238 Y102.843 E-.0806
G1 X118.638 Y102.876 E-.09267
G1 X119.004 Y102.975 E-.08755
G1 X119.343 Y103.138 E-.08685
G1 X119.65 Y103.355 E-.08681
G1 X119.915 Y103.625 E-.08735
G1 X120.127 Y103.933 E-.08634
G1 X120.156 Y104.007 E-.01833
;WIPE_END
G1 Z.6 F720
G1 X148.543 Y101.074 F10800
G1 Z.2 F720
G1 E.8 F2100
M204 S800
;TYPE:Solid infill
;WIDTH:0.423639
G1 F1200
G1 X147.722 Y100.253 E.03676
G1 X147.273 Y99.869 E.0187
G1 X146.757 Y99.552 E.01917
G1 X146.29 Y99.359 E.016
G1 X148.64 Y101.709 E.10521
G1 X148.68 Y101.804 E.00326
G1 X148.825 Y102.433 E.02043
G1 X145.566 Y99.174 E.1459
G1 X144.982 Y99.128 E.01854
G1 X148.871 Y103.017 E.17411
G1 X148.874 Y103.558 E.01713
G1 X144.441 Y99.125 E.19846
G1 X143.903 Y99.125 E.01703
G1 X148.874 Y104.096 E.22255
G1 X148.874 Y104.635 E.01706
G1 X143.364 Y99.125 E.24668
G1 X142.826 Y99.125 E.01703
M73 Q3 S17
G1 X148.874 Y105.173 E.27077
G1 X148.874 Y105.712 E.01706
M73 P3 R17
G1 X142.287 Y99.125 E.2949
G1 X141.749 Y99.125 E.01703
G1 X148.874 Y106.25 E.31898
G1 X148.874 Y106.788 E.01703
G1 X141.211 Y99.125 E.34307
G1 X140.672 Y99.125 E.01706
G1 X148.843 Y107.297 E.36584
G1 X148.81 Y107.672 E.01192
G1 X148.783 Y107.775 E.00337
G1 X140.134 Y99.125 E.38723
G1 X139.595 Y99.125 E.01706
G1 X148.669 Y108.199 E.40624
G1 X148.636 Y108.323 E.00406
G1 X148.514 Y108.582 E.00906
G1 X139.057 Y99.125 E.42339
G1 X138.518 Y99.125 E.01706
G1 X148.34 Y108.947 E.43973
G1 X148.119 Y109.264 E.01223
G1 X137.98 Y99.125 E.45392
G1 X137.442 Y99.125 E.01703
G1 X147.883 Y109.567 E.46746
G1 X147.615 Y109.837 E.01204
G1 X136.903 Y99.125 E.47957
G1 X136.365 Y99.125 E.01703
G1 X147.32 Y110.081 E.49047
G1 X147.003 Y110.302 E.01223
G1 X135.826 Y99.125 E.50039
G1 X135.288 Y99.125 E.01703
G1 X146.647 Y110.485 E.50856
G1 X146.274 Y110.65 E.01291
G1 X134.75 Y99.125 E.51595
G1 X134.211 Y99.125 E.01706
M73 P4 R17
M73 Q4 S17
G1 X145.849 Y110.764 E.52105
G1 X145.673 Y110.811 E.00577
G1 X145.383 Y110.836 E.00921
G1 X133.673 Y99.125 E.52427
G1 X133.134 Y99.125 E.01706
G1 X144.881 Y110.873 E.52593
G1 X144.343 Y110.873 E.01703
G1 X132.596 Y99.125 E.52593
G1 X132.057 Y99.125 E.01706
G1 X143.805 Y110.873 E.52595
G1 X143.266 Y110.873 E.01706
G1 X131.519 Y99.125 E.52593
G1 X130.981 Y99.125 E.01703
G1 X142.728 Y110.873 E.52593
G1 X142.189 Y110.873 E.01706
G1 X130.442 Y99.125 E.52593
G1 X129.904 Y99.125 E.01703
G1 X141.651 Y110.873 E.52593
G1 X141.113 Y110.873 E.01703
G1 X134.525 Y104.285 E.29494
G1 X134.569 Y104.434 E.00492
G1 X134.617 Y104.916 E.01533
G1 X140.574 Y110.873 E.26669
G1 X140.036 Y110.873 E.01703
G1 X134.583 Y105.42 E.24413
G1 X134.569 Y105.562 E.00452
G1 X134.483 Y105.858 E.00976
G1 X139.497 Y110.873 E.2245
G1 X138.959 Y110.873 E.01703
G1 X134.33 Y106.244 E.20724
G1 X134.205 Y106.496 E.00891
G1 X134.137 Y106.589 E.00365
G1 X138.42 Y110.873 E.19177
G1 X137.882 Y110.873 E.01703
G1 X133.909 Y106.899 E.17789
G1 X133.633 Y107.162 E.01207
G1 X137.344 Y110.873 E.16614
G1 X136.805 Y110.873 E.01706
M73 Q5 S17
G1 X133.325 Y107.393 E.1558
G1 X133.131 Y107.521 E.00736
M73 P5 R17
G1 X132.985 Y107.59 E.00511
G1 X136.267 Y110.873 E.14696
G1 X135.728 Y110.873 E.01706
G1 X132.592 Y107.736 E.14042
G1 X132.249 Y107.834 E.01129
G1 X132.159 Y107.842 E.00286
G1 X135.19 Y110.873 E.1357
G1 X134.652 Y110.873 E.01703
G1 X131.648 Y107.869 E.13449
G1 X131.186 Y107.82 E.01471
G1 X131.008 Y107.768 E.00587
G1 X134.283 Y111.042 E.1466
M204 S1000
;WIPE_START
G1 F8640
G1 X131.833 Y108.592 E-.8
;WIPE_END
G1 Z.6 F720
G1 X132.725 Y102.485 F10800
G1 Z.2 F720
G1 E.8 F2100
M204 S800
G1 F1200
G1 X129.365 Y99.125 E.15043
G1 X128.827 Y99.125 E.01703
G1 X131.84 Y102.138 E.13489
G1 X131.654 Y102.128 E.0059
G1 X131.323 Y102.159 E.01052
G1 X128.289 Y99.125 E.13583
G1 X127.75 Y99.125 E.01706
G1 X130.892 Y102.268 E.14069
G1 X130.7 Y102.322 E.00631
G1 X130.502 Y102.415 E.00693
G1 X127.212 Y99.125 E.14729
G1 X126.673 Y99.125 E.01706
G1 X130.162 Y102.614 E.1562
G1 X129.956 Y102.751 E.00783
G1 X129.856 Y102.846 E.00437
G1 X126.135 Y99.125 E.16659
G1 X125.596 Y99.125 E.01706
G1 X129.582 Y103.111 E.17845
G1 X129.354 Y103.421 E.01218
G1 X125.058 Y99.125 E.19233
G1 X124.52 Y99.125 E.01703
G1 X129.162 Y103.768 E.20784
G1 X129.072 Y103.949 E.0064
G1 X129.012 Y104.157 E.00685
G1 X123.981 Y99.125 E.22526
G1 X123.443 Y99.125 E.01703
G1 X128.908 Y104.59 E.24467
G1 X128.872 Y105.002 E.01309
G1 X128.881 Y105.102 E.00318
G1 X122.904 Y99.125 E.26759
G1 X122.366 Y99.125 E.01703
G1 X129.231 Y105.99 E.30734
M204 S1000
;WIPE_START
G1 F8640
G1 X126.781 Y103.54 E-.8
;WIPE_END
G1 Z.6 F720
G1 X133.744 Y111.042 F10800
G1 Z.2 F720
G1 E.8 F2100
M204 S800
G1 F1200
G1 X121.828 Y99.125 E.5335
G1 X121.289 Y99.125 E.01706
G1 X133.036 Y110.873 E.52593
G1 X132.498 Y110.873 E.01703
G1 X120.751 Y99.125 E.52593
G1 X120.212 Y99.125 E.01706
G1 X131.959 Y110.873 E.52593
G1 X131.421 Y110.873 E.01703
G1 X119.674 Y99.125 E.52593
G1 X119.135 Y99.125 E.01706
M73 P6 R17
M73 Q6 S17
G1 X130.883 Y110.873 E.52595
G1 X130.344 Y110.873 E.01706
G1 X118.597 Y99.125 E.52593
G1 X118.059 Y99.125 E.01703
G1 X129.806 Y110.873 E.52593
G1 X129.267 Y110.873 E.01706
G1 X117.52 Y99.125 E.52593
G1 X116.982 Y99.125 E.01703
G1 X128.729 Y110.873 E.52593
G1 X128.19 Y110.873 E.01706
G1 X116.443 Y99.125 E.52593
G1 X115.905 Y99.125 E.01703
G1 X119.018 Y102.239 E.13939
