; generated by PrusaSlicer 2.6.1+win64 on 2024-03-09 at 17:43:59 UTC


;
;
; 

; external perimeters extrusion width = 0.45mm
; perimeters extrusion width = 0.45mm
; infill extrusion width = 0.45mm
; solid infill extrusion width = 0.45mm
; top infill extrusion width = 0.40mm
; first layer extrusion width = 0.42mm

M73 P0 R34
M73 Q0 S34
M201 X1000 Y1000 Z200 E5000 ; sets maximum accelerations, mm/sec^2
M203 X200 Y200 Z12 E120 ; sets maximum feedrates, mm / sec
M204 S1250 T1250 ; sets acceleration (S) and retract acceleration (R), mm/sec^2
M205 X8.00 Y8.00 Z0.40 E4.50 ; sets the jerk limits, mm/sec
M205 S0 T0 ; sets the minimum extruding and travel feed rate, mm/sec
;TYPE:Custom
M862.3 P "MK3S" ; printer model check
M862.1 P0.4 ; nozzle diameter check
M115 U3.12.2 ; tell printer latest fw version
G90 ; use absolute coordinates
M83 ; extruder relative mode
M104 S215 ; set extruder temp
M140 S60 ; set bed temp
M190 S60 ; wait for bed temp
M109 S215 ; wait for extruder temp
G28 W ; home all without mesh bed level
G80 ; mesh bed leveling

G1 Z0.2 F720
G1 Y-3 F1000 ; go outside print area
G92 E0
G1 X60 E9 F1000 ; intro line
G1 X100 E12.5 F1000 ; intro line

G92 E0
M221 S95

; Don't change E values below. Excessive value can damage the printer.
M907 E430 ; set extruder motor current
G21 ; set units to millimeters
G90 ; use absolute coordinates
M83 ; use relative distances for extrusion
M900 K0.05 ; Filament gcode LA 1.5
M900 K30 ; Filament gcode LA 1.0
M107
;LAYER_CHANGE
;Z:0.2
;HEIGHT:0.2
;BEFORE_LAYER_CHANGE
G92 E0.0
;0.2


G1 E-.8 F2100
G1 Z.4 F720
;AFTER_LAYER_CHANGE
;0.2
G1 X99.487 Y90.109 F10800
G1 Z.2 F720
G1 E.8 F2100
M204 S800
;TYPE:Skirt/Brim
;WIDTH:0.42
G1 F1200
G1 X100.103 Y89.491 E.02736
G1 X101.138 Y88.722 E.04043
G1 X102.673 Y88.005 E.05312
G1 X103.93 Y87.706 E.04051
G1 X105.001 Y87.624 E.03368
G1 X144.999 Y87.624 E1.25411
G1 X146.487 Y87.78 E.04691
G1 X147.711 Y88.145 E.04005
G1 X148.867 Y88.724 E.04054
G1 X149.894 Y89.488 E.04013
G1 X150.778 Y90.423 E.04034
G1 X151.485 Y91.495 E.04026
G1 X151.996 Y92.678 E.0404
G1 X152.291 Y93.919 E.03999
G1 X152.378 Y95.001 E.03403
G1 X152.378 Y114.999 E.62702
G1 X152.291 Y116.081 E.03403
G1 X151.853 Y117.717 E.0531
G1 X151.278 Y118.863 E.0402
G1 X150.509 Y119.897 E.0404
G1 X149.891 Y120.513 E.02736
G1 X148.871 Y121.274 E.0399
G1 X147.321 Y121.996 E.05361
G1 X146.076 Y122.291 E.04012
G1 X144.999 Y122.376 E.03387
G1 X104.794 Y122.367 E1.2606
G1 X103.924 Y122.291 E.02738
G1 X102.678 Y121.996 E.04015
G1 X101.495 Y121.485 E.0404
G1 X100.106 Y120.51 E.05321
G1 X99.226 Y119.58 E.04014
G1 X98.724 Y118.866 E.02737
G1 X98.004 Y117.322 E.05342
G1 X97.709 Y116.076 E.04015
G1 X97.633 Y115.206 E.02738
G1 X97.633 Y94.794 E.64
G1 X97.709 Y93.919 E.02754
G1 X98.004 Y92.678 E.03999
G1 X98.515 Y91.495 E.0404
G1 X99.453 Y90.158 E.05121
M204 S1000
; printing object skadis 4xconnector.STL id:0 copy 0
;WIPE_START
G1 F8640
G1 X100.103 Y89.491 E-.21505
G1 X101.138 Y88.722 E-.29773
G1 X102.265 Y88.196 E-.28722
;WIPE_END
G1 Z.6 F720
G1 X149.145 Y94.268 F10800
G1 Z.2 F720
G1 E.8 F2100
M204 S800
;TYPE:Perimeter
;WIDTH:0.419999
G1 F1200
G1 X149.214 Y95.235 E.0304
G1 X149.214 Y114.964 E.61859
G1 X149.145 Y115.732 E.02418
G1 X148.956 Y116.441 E.02301
G1 X148.647 Y117.104 E.02293
G1 X148.226 Y117.705 E.02301
G1 X147.705 Y118.224 E.02306
G1 X147.105 Y118.647 E.02302
G1 X146.44 Y118.956 E.02299
G1 X145.732 Y119.145 E.02298
G1 X144.965 Y119.212 E.02414
G1 X105.035 Y119.212 E1.25198
G1 X104.267 Y119.145 E.02417
G1 X103.559 Y118.956 E.02298
G1 X102.897 Y118.647 E.02291
G1 X102.295 Y118.224 E.02307
G1 X101.776 Y117.705 E.02301
G1 X101.353 Y117.103 E.02307
G1 X101.044 Y116.441 E.02291
G1 X100.855 Y115.733 E.02298
G1 X100.788 Y114.965 E.02417
G1 X100.788 Y95.035 E.62489
G1 X100.855 Y94.267 E.02417
M73 P1 R34
M73 Q1 S34
G1 X101.044 Y93.559 E.02298
G1 X101.353 Y92.897 E.02291
G1 X101.776 Y92.295 E.02307
G1 X102.295 Y91.774 E.02306
G1 X102.896 Y91.353 E.02301
G1 X103.56 Y91.043 E.02298
G1 X104.267 Y90.853 E.02295
G1 X105.034 Y90.788 E.02413
G1 X144.966 Y90.788 E1.25204
G1 X145.732 Y90.853 E.0241
G1 X146.439 Y91.043 E.02295
G1 X147.106 Y91.353 E.02306
G1 X147.705 Y91.774 E.02296
G1 X148.226 Y92.295 E.0231
G1 X148.647 Y92.896 E.02301
G1 X148.956 Y93.559 E.02293
G1 X149.13 Y94.21 E.02113
M204 S1000
G1 X149.518 Y94.203 F10800
M204 S800
;TYPE:External perimeter
G1 F1200
G1 X149.591 Y95.235 E.03244
G1 X149.591 Y114.981 E.61912
G1 X149.518 Y115.797 E.02569
G1 X149.312 Y116.57 E.02508
G1 X148.975 Y117.293 E.02501
G1 X148.516 Y117.948 E.02508
G1 X147.948 Y118.514 E.02514
G1 X147.295 Y118.975 E.02506
G1 X146.569 Y119.312 E.0251
G1 X145.798 Y119.518 E.02502
G1 X144.981 Y119.589 E.02571
G1 X105.019 Y119.589 E1.25298
G1 X104.202 Y119.518 E.02571
G1 X103.43 Y119.312 E.02505
G1 X102.707 Y118.975 E.02501
G1 X102.052 Y118.514 E.02511
G1 X101.486 Y117.948 E.0251
G1 X101.025 Y117.293 E.02511
G1 X100.688 Y116.57 E.02501
G1 X100.482 Y115.798 E.02505
G1 X100.411 Y114.981 E.02571
G1 X100.411 Y95.019 E.62589
G1 X100.482 Y94.202 E.02571
M73 P1 R33
G1 X100.688 Y93.43 E.02505
G1 X101.025 Y92.707 E.02501
G1 X101.486 Y92.052 E.02511
G1 X102.052 Y91.484 E.02514
G1 X102.707 Y91.025 E.02508
G1 X103.43 Y90.688 E.02501
G1 X104.202 Y90.48 E.02507
G1 X105.018 Y90.411 E.02568
G1 X144.982 Y90.411 E1.25304
G1 X145.798 Y90.48 E.02568
G1 X146.568 Y90.688 E.02501
G1 X147.295 Y91.025 E.02512
G1 X147.948 Y91.484 E.02503
G1 X148.516 Y92.052 E.02519
G1 X148.975 Y92.707 E.02508
G1 X149.312 Y93.43 E.02501
G1 X149.502 Y94.145 E.0232
M204 S1000
G1 X149.208 Y94.456 F10800
;WIPE_START
G1 F8640
G1 X149.591 Y95.235 E-.25252
G1 X149.591 Y97.606 E-.54748
;WIPE_END
G1 Z.6 F720
G1 X134.282 Y97.998 F10800
G1 Z.2 F720
G1 E.8 F2100
M204 S800
;TYPE:Perimeter
G1 F1200
G1 X134.239 Y98.485 E.01533
G1 X134.116 Y98.916 E.01405
G1 X133.922 Y99.309 E.01374
G1 X133.661 Y99.668 E.01392
G1 X133.341 Y99.976 E.01393
G1 X132.977 Y100.219 E.01372
G1 X132.569 Y100.401 E.01401
G1 X132.049 Y100.514 E.01668
G1 X131.7 Y100.537 E.01097
G1 X131.261 Y100.489 E.01385
G1 X130.834 Y100.366 E.01393
G1 X130.441 Y100.172 E.01374
G1 X130.082 Y99.911 E.01392
G1 X129.774 Y99.591 E.01393
G1 X129.531 Y99.227 E.01372
G1 X129.349 Y98.819 E.01401
G1 X129.245 Y98.394 E.01372
G1 X129.213 Y97.947 E.01405
G1 X129.261 Y97.514 E.01366
G1 X129.384 Y97.084 E.01402
G1 X129.578 Y96.691 E.01374
G1 X129.839 Y96.332 E.01392
G1 X130.159 Y96.024 E.01393
G1 X130.441 Y95.828 E.01077
G1 X130.93 Y95.599 E.01693
G1 X131.355 Y95.495 E.01372
G1 X131.768 Y95.465 E.01298
G1 X132.236 Y95.511 E.01474
G1 X132.666 Y95.634 E.01402
G1 X133.059 Y95.828 E.01374
G1 X133.418 Y96.089 E.01392
G1 X133.726 Y96.409 E.01393
G1 X133.969 Y96.773 E.01372
G1 X134.151 Y97.181 E.01401
G1 X134.256 Y97.61 E.01385
G1 X134.278 Y97.938 E.01031
M204 S1000
G1 X133.905 Y97.965 F10800
M204 S800
;TYPE:External perimeter
G1 F1200
G1 X133.874 Y98.389 E.01333
G1 X133.775 Y98.755 E.01189
G1 X133.612 Y99.094 E.01179
G1 X133.395 Y99.401 E.01179
G1 X133.125 Y99.666 E.01186
G1 X132.817 Y99.878 E.01172
G1 X132.473 Y100.036 E.01187
G1 X132.014 Y100.138 E.01474
G1 X131.734 Y100.161 E.00881
G1 X131.358 Y100.124 E.01185
G1 X130.994 Y100.024 E.01184
G1 X130.656 Y99.862 E.01175
G1 X130.349 Y99.645 E.01179
G1 X130.084 Y99.375 E.01186
G1 X129.872 Y99.067 E.01172
G1 X129.714 Y98.723 E.01187
G1 X129.62 Y98.359 E.01179
G1 X129.589 Y97.982 E.01186
G1 X129.626 Y97.61 E.01172
G1 X129.725 Y97.245 E.01186
G1 X129.888 Y96.906 E.01179
G1 X130.105 Y96.599 E.01179
G1 X130.375 Y96.334 E.01186
G1 X130.656 Y96.138 E.01074
G1 X131.026 Y95.964 E.01282
G1 X131.389 Y95.87 E.01176
G1 X131.739 Y95.841 E.01101
G1 X132.14 Y95.876 E.01262
G1 X132.505 Y95.975 E.01186
G1 X132.844 Y96.138 E.01179
G1 X133.151 Y96.355 E.01179
G1 X133.416 Y96.625 E.01186
G1 X133.628 Y96.933 E.01172
G1 X133.786 Y97.277 E.01187
G1 X133.88 Y97.643 E.01185
G1 X133.9 Y97.905 E.00824
M204 S1000
G1 X134.253 Y98.161 F10800
;WIPE_START
G1 F8640
G1 X133.874 Y98.389 E-.11192
G1 X133.775 Y98.755 E-.08755
G1 X133.612 Y99.094 E-.08685
G1 X133.395 Y99.401 E-.08681
G1 X133.125 Y99.666 E-.08735
G1 X132.817 Y99.878 E-.08634
G1 X132.473 Y100.036 E-.08741
G1 X132.014 Y100.138 E-.10857
G1 X131.767 Y100.158 E-.0572
;WIPE_END
G1 Z.6 F720
G1 X116.984 Y100.193 F10800
G1 Z.2 F720
G1 E.8 F2100
M204 S800
;TYPE:Perimeter
G1 F1200
G1 X116.582 Y99.911 E.0154
G1 X116.274 Y99.591 E.01393
G1 X116.031 Y99.227 E.01372
G1 X115.849 Y98.819 E.01401
G1 X115.744 Y98.389 E.01388
G1 X115.715 Y97.95 E.01379
G1 X115.761 Y97.515 E.01372
G1 X115.884 Y97.084 E.01405
G1 X116.078 Y96.691 E.01374
G1 X116.339 Y96.332 E.01392
G1 X116.659 Y96.024 E.01393
G1 X117.023 Y95.781 E.01372
G1 X117.431 Y95.599 E.01401
G1 X117.856 Y95.495 E.01372
G1 X118.266 Y95.465 E.01289
G1 X118.739 Y95.511 E.0149
G1 X119.166 Y95.634 E.01393
G1 X119.559 Y95.828 E.01374
G1 X119.918 Y96.089 E.01392
G1 X120.226 Y96.409 E.01393
G1 X120.469 Y96.773 E.01372
G1 X120.651 Y97.181 E.01401
G1 X120.755 Y97.606 E.01372
G1 X120.787 Y98.051 E.01399
G1 X120.739 Y98.486 E.01372
G1 X120.616 Y98.916 E.01402
G1 X120.422 Y99.309 E.01374
G1 X120.161 Y99.668 E.01392
G1 X119.841 Y99.976 E.01393
G1 X119.477 Y100.219 E.01372
G1 X119.07 Y100.401 E.01398
G1 X118.551 Y100.514 E.01665
G1 X118.197 Y100.537 E.01112
G1 X117.856 Y100.505 E.01074
G1 X117.334 Y100.366 E.01694
G1 X117.038 Y100.22 E.01035
M204 S1000
G1 X117.199 Y99.883 F10800
M204 S800
;TYPE:External perimeter
G1 F1200
G1 X116.849 Y99.645 E.01327
G1 X116.584 Y99.375 E.01186
G1 X116.372 Y99.067 E.01172
G1 X116.214 Y98.723 E.01187
G1 X116.12 Y98.357 E.01185
G1 X116.091 Y97.983 E.01176
G1 X116.126 Y97.611 E.01172
G1 X116.225 Y97.245 E.01189
G1 X116.388 Y96.906 E.01179
G1 X116.605 Y96.599 E.01179
G1 X116.875 Y96.334 E.01186
G1 X117.183 Y96.122 E.01172
G1 X117.527 Y95.964 E.01187
G1 X117.891 Y95.87 E.01179
G1 X118.236 Y95.841 E.01086
G1 X118.642 Y95.876 E.01278
G1 X119.006 Y95.976 E.01184
G1 X119.344 Y96.138 E.01175
G1 X119.651 Y96.355 E.01179
G1 X119.916 Y96.625 E.01186
G1 X120.128 Y96.933 E.01172
G1 X120.286 Y97.277 E.01187
G1 X120.38 Y97.641 E.01179
G1 X120.411 Y98.016 E.0118
G1 X120.374 Y98.39 E.01178
G1 X120.275 Y98.755 E.01186
G1 X120.112 Y99.094 E.01179
G1 X119.895 Y99.401 E.01179
G1 X119.625 Y99.666 E.01186
G1 X119.317 Y99.878 E.01172
G1 X118.974 Y100.036 E.01184
G1 X118.517 Y100.138 E.01468
G1 X118.231 Y100.161 E.009
G1 X117.891 Y100.13 E.0107
G1 X117.495 Y100.025 E.01285
G1 X117.253 Y99.908 E.00843
M204 S1000
G1 X116.854 Y100.086 F10800
;WIPE_START
G1 F8640
G1 X116.849 Y99.645 E-.11131
G1 X116.584 Y99.375 E-.08735
G1 X116.372 Y99.067 E-.08634
G1 X116.214 Y98.723 E-.08741
G1 X116.12 Y98.357 E-.08725
G1 X116.091 Y97.983 E-.08662
G1 X116.126 Y97.611 E-.08628
G1 X116.225 Y97.245 E-.08755
G1 X116.375 Y96.933 E-.07989
;WIPE_END
G1 Z.6 F720
G1 X120.783 Y111.999 F10800
G1 Z.2 F720
M73 Q1 S33
G1 E.8 F2100
M204 S800
;TYPE:Perimeter
G1 F1200
G1 X120.739 Y112.489 E.01543
G1 X120.616 Y112.916 E.01393
G1 X120.422 Y113.309 E.01374
G1 X120.161 Y113.668 E.01392
G1 X119.841 Y113.976 E.01393
G1 X119.477 Y114.219 E.01372
G1 X119.07 Y114.401 E.01398
G1 X118.645 Y114.505 E.01372
G1 X118.197 Y114.537 E.01408
G1 X117.764 Y114.489 E.01366
G1 X117.334 Y114.366 E.01402
G1 X116.941 Y114.172 E.01374
G1 X116.582 Y113.911 E.01392
G1 X116.274 Y113.591 E.01393
G1 X116.031 Y113.227 E.01372
G1 X115.849 Y112.82 E.01398
G1 X115.744 Y112.391 E.01385
G1 X115.713 Y111.981 E.01289
G1 X115.761 Y111.515 E.01469
G1 X115.884 Y111.084 E.01405
G1 X116.078 Y110.691 E.01374
G1 X116.339 Y110.332 E.01392
G1 X116.659 Y110.024 E.01393
G1 X117.023 Y109.781 E.01372
G1 X117.431 Y109.599 E.01401
G1 X117.86 Y109.494 E.01385
G1 X118.383 Y109.475 E.01641
G1 X118.739 Y109.511 E.01122
G1 X119.166 Y109.634 E.01393
G1 X119.559 Y109.828 E.01374
G1 X119.918 Y110.089 E.01392
G1 X120.226 Y110.409 E.01393
G1 X120.469 Y110.773 E.01372
G1 X120.651 Y111.181 E.01401
G1 X120.755 Y111.606 E.01372
G1 X120.779 Y111.939 E.01047
M204 S1000
G1 X120.407 Y112.062 F10800
M204 S800
;TYPE:External perimeter
G1 F1200
G1 X120.374 Y112.392 E.0104
G1 X120.274 Y112.756 E.01184
G1 X120.112 Y113.094 E.01175
G1 X119.895 Y113.401 E.01179
G1 X119.625 Y113.666 E.01186
G1 X119.317 Y113.878 E.01172
G1 X118.974 Y114.036 E.01184
G1 X118.611 Y114.13 E.01176
G1 X118.231 Y114.161 E.01195
G1 X117.86 Y114.124 E.01169
G1 X117.495 Y114.025 E.01186
G1 X117.156 Y113.862 E.01179
G1 X116.849 Y113.645 E.01179
G1 X116.584 Y113.375 E.01186
G1 X116.372 Y113.067 E.01172
G1 X116.214 Y112.724 E.01184
G1 X116.12 Y112.359 E.01182
G1 X116.09 Y111.993 E.01151
G1 X116.126 Y111.611 E.01203
G1 X116.225 Y111.245 E.01189
G1 X116.388 Y110.906 E.01179
G1 X116.605 Y110.599 E.01179
G1 X116.875 Y110.334 E.01186
G1 X117.183 Y110.122 E.01172
G1 X117.527 Y109.964 E.01187
G1 X117.893 Y109.87 E.01185
G1 X118.355 Y109.852 E.0145
G1 X118.642 Y109.876 E.00903
G1 X119.006 Y109.976 E.01184
G1 X119.344 Y110.138 E.01175
G1 X119.651 Y110.355 E.01179
G1 X119.916 Y110.625 E.01186
G1 X120.128 Y110.933 E.01172
G1 X120.286 Y111.277 E.01187
G1 X120.38 Y111.641 E.01179
G1 X120.41 Y112.002 E.01136
M204 S1000
G1 X120.691 Y112.232 F10800
;WIPE_START
G1 F8640
G1 X120.374 Y112.392 E-.09043
G1 X120.274 Y112.756 E-.08716
G1 X120.112 Y113.094 E-.08655
G1 X119.895 Y113.401 E-.08681
G1 X119.625 Y113.666 E-.08735
G1 X119.317 Y113.878 E-.08634
G1 X118.974 Y114.036 E-.0872
G1 X118.611 Y114.13 E-.08658
G1 X118.231 Y114.161 E-.08803
G1 X118.173 Y114.155 E-.01355
;WIPE_END
G1 Z.6 F720
G1 X134.282 Y111.998 F10800
G1 Z.2 F720
G1 E.8 F2100
M204 S800
;TYPE:Perimeter
G1 F1200
G1 X134.239 Y112.488 E.01542
G1 X134.116 Y112.916 E.01396
G1 X133.922 Y113.309 E.01374
G1 X133.661 Y113.668 E.01392
G1 X133.341 Y113.976 E.01393
G1 X132.977 Y114.219 E.01372
G1 X132.569 Y114.401 E.01401
G1 X132.144 Y114.505 E.01372
G1 X131.7 Y114.537 E.01396
G1 X131.261 Y114.489 E.01385
G1 X130.834 Y114.366 E.01393
G1 X130.441 Y114.172 E.01374
G1 X130.082 Y113.911 E.01392
G1 X129.774 Y113.591 E.01393
G1 X129.531 Y113.227 E.01372
G1 X129.349 Y112.82 E.01398
G1 X129.245 Y112.395 E.01372
G1 X129.213 Y111.947 E.01408
G1 X129.261 Y111.514 E.01366
G1 X129.384 Y111.084 E.01402
G1 X129.578 Y110.691 E.01374
G1 X129.839 Y110.332 E.01392
G1 X130.159 Y110.024 E.01393
G1 X130.523 Y109.781 E.01372
G1 X130.93 Y109.599 E.01398
G1 X131.359 Y109.494 E.01385
G1 X131.887 Y109.476 E.01656
G1 X132.236 Y109.511 E.011
G1 X132.666 Y109.634 E.01402
G1 X133.059 Y109.828 E.01374
G1 X133.418 Y110.089 E.01392
G1 X133.726 Y110.409 E.01393
G1 X133.969 Y110.773 E.01372
G1 X134.151 Y111.181 E.01401
G1 X134.256 Y111.61 E.01385
G1 X134.278 Y111.938 E.01031
M204 S1000
G1 X133.905 Y111.967 F10800
M204 S800
;TYPE:External perimeter
G1 F1200
G1 X133.874 Y112.391 E.01333
G1 X133.774 Y112.756 E.01187
G1 X133.612 Y113.094 E.01175
G1 X133.395 Y113.401 E.01179
G1 X133.125 Y113.666 E.01186
G1 X132.817 Y113.878 E.01172
G1 X132.473 Y114.036 E.01187
G1 X132.109 Y114.13 E.01179
G1 X131.734 Y114.161 E.0118
G1 X131.358 Y114.124 E.01185
G1 X130.994 Y114.024 E.01184
G1 X130.656 Y113.862 E.01175
G1 X130.349 Y113.645 E.01179
G1 X130.084 Y113.375 E.01186
G1 X129.872 Y113.067 E.01172
G1 X129.714 Y112.724 E.01184
G1 X129.62 Y112.361 E.01176
G1 X129.589 Y111.981 E.01195
G1 X129.626 Y111.61 E.01169
G1 X129.725 Y111.245 E.01186
G1 X129.888 Y110.906 E.01179
G1 X130.105 Y110.599 E.01179
G1 X130.375 Y110.334 E.01186
G1 X130.683 Y110.122 E.01172
G1 X131.026 Y109.964 E.01184
G1 X131.391 Y109.87 E.01182
G1 X131.859 Y109.852 E.01468
G1 X132.14 Y109.876 E.00884
G1 X132.505 Y109.975 E.01186
G1 X132.844 Y110.138 E.01179
G1 X133.151 Y110.355 E.01179
G1 X133.416 Y110.625 E.01186
G1 X133.628 Y110.933 E.01172
G1 X133.786 Y111.277 E.01187
G1 X133.88 Y111.643 E.01185
G1 X133.901 Y111.907 E.0083
M204 S1000
G1 X134.253 Y112.164 F10800
;WIPE_START
G1 F8640
G1 X133.874 Y112.391 E-.11193
G1 X133.774 Y112.756 E-.08739
G1 X133.612 Y113.094 E-.08655
G1 X133.395 Y113.401 E-.08681
G1 X133.125 Y113.666 E-.08735
G1 X132.817 Y113.878 E-.08634
G1 X132.473 Y114.036 E-.08741
G1 X132.109 Y114.13 E-.08681
G1 X131.766 Y114.158 E-.07941
;WIPE_END
G1 Z.6 F720
G1 X148.56 Y93.111 F10800
G1 Z.2 F720
G1 E.8 F2100
M204 S800
;TYPE:Solid infill
