; generated by PrusaSlicer 2.6.1+win64 on 2024-03-09 at 17:44:52 UTC


;
;
; 

; external perimeters extrusion width = 0.45mm
; perimeters extrusion width = 0.45mm
; infill extrusion width = 0.45mm
; solid infill extrusion width = 0.45mm
; top infill extrusion width = 0.40mm
; first layer extrusion width = 0.42mm

M73 P0 R16
M73 Q0 S16
M201 X1000 Y1000 Z200 E5000 ; sets maximum accelerations, mm/sec^2
M203 X200 Y200 Z12 E120 ; sets maximum feedrates, mm / sec
M204 S1250 T1250 ; sets acceleration (S) and retract acceleration (R), mm/sec^2
M205 X8.00 Y8.00 Z0.40 E4.50 ; sets the jerk limits, mm/sec
M205 S0 T0 ; sets the minimum extruding and travel feed rate, mm/sec
;TYPE:Custom
M862.3 P "MK3S" ; printer model check
M862.1 P0.4 ; nozzle diameter check
M115 U3.12.2 ; tell printer latest fw version
G90 ; use absolute coordinates
M83 ; extruder relative mode
M104 S215 ; set extruder temp
M140 S60 ; set bed temp
M190 S60 ; wait for bed temp
M109 S215 ; wait for extruder temp
G28 W ; home all without mesh bed level
G80 ; mesh bed leveling

G1 Z0.2 F720
G1 Y-3 F1000 ; go outside print area
G92 E0
G1 X60 E9 F1000 ; intro line
G1 X100 E12.5 F1000 ; intro line

G92 E0
M221 S95

; Don't change E values below. Excessive value can damage the printer.
M907 E430 ; set extruder motor current
G21 ; set units to millimeters
G90 ; use absolute coordinates
M83 ; use relative distances for extrusion
M900 K0.05 ; Filament gcode LA 1.5
M900 K30 ; Filament gcode LA 1.0
M107
;LAYER_CHANGE
;Z:0.2
;HEIGHT:0.2
;BEFORE_LAYER_CHANGE
G92 E0.0
;0.2


G1 E-.8 F2100
G1 Z.4 F720
;AFTER_LAYER_CHANGE
;0.2
G1 X110.641 Y92.557 F10800
G1 Z.2 F720
G1 E.8 F2100
M204 S800
;TYPE:Skirt/Brim
;WIDTH:0.42
G1 F1200
G1 X111.697 Y91.339 E.05054
G1 X112.996 Y90.356 E.05108
G1 X114.464 Y89.669 E.05082
G1 X116.034 Y89.304 E.05054
G1 X116.987 Y89.242 E.02994
G1 X133.148 Y89.245 E.50672
G1 X134.461 Y89.383 E.04139
G1 X135.523 Y89.665 E.03445
G1 X136.747 Y90.208 E.04198
G1 X137.676 Y90.81 E.03471
G1 X138.667 Y91.703 E.04183
G1 X139.359 Y92.557 E.03446
G1 X140.026 Y93.712 E.04182
G1 X140.555 Y95.243 E.05079
G1 X140.758 Y96.996 E.05533
G1 X140.728 Y113.662 E.52255
G1 X140.558 Y114.743 E.03431
M73 Q1 S16
G1 X140.335 Y115.523 E.02544
M73 P1 R16
G1 X140.026 Y116.288 E.02587
G1 X139.359 Y117.443 E.04182
G1 X138.297 Y118.667 E.05081
G1 X137.004 Y119.644 E.05081
G1 X136.037 Y120.137 E.03403
G1 X135.262 Y120.42 E.02587
G1 X133.684 Y120.725 E.05039
G1 X116.329 Y120.727 E.54415
G1 X115.525 Y120.615 E.02545
G1 X114.464 Y120.331 E.03444
G1 X113.253 Y119.792 E.04156
G1 X112.557 Y119.359 E.0257
G1 X111.333 Y118.297 E.05081
G1 X110.649 Y117.454 E.03404
G1 X110.219 Y116.766 E.02544
G1 X109.58 Y115.262 E.05124
G1 X109.275 Y113.684 E.05039
G1 X109.272 Y96.338 E.54387
G1 X109.442 Y95.257 E.03431
G1 X109.665 Y94.477 E.02544
G1 X109.974 Y93.712 E.02587
G1 X110.611 Y92.609 E.03994
M204 S1000
G1 X110.937 Y92.797 F10800
M204 S800
G1 F1200
G1 X111.963 Y91.605 E.04931
G1 X113.201 Y90.672 E.04861
G1 X114.599 Y90.021 E.04835
G1 X116.093 Y89.677 E.04807
G1 X116.987 Y89.619 E.02809
G1 X133.129 Y89.622 E.50612
G1 X134.403 Y89.755 E.04016
G1 X135.389 Y90.018 E.032
G1 X136.576 Y90.544 E.04071
G1 X137.439 Y91.103 E.03224
G1 X138.401 Y91.969 E.04058
G1 X139.043 Y92.762 E.03199
G1 X139.69 Y93.883 E.04058
G1 X140.191 Y95.341 E.04834
G1 X140.381 Y96.996 E.05223
G1 X140.353 Y113.608 E.52086
G1 X140.245 Y114.403 E.02516
G1 X139.982 Y115.389 E.032
G1 X139.69 Y116.117 E.02459
G1 X139.043 Y117.238 E.04058
G1 X138.031 Y118.401 E.04834
G1 X136.799 Y119.328 E.04834
G1 X135.901 Y119.786 E.03161
G1 X135.164 Y120.055 E.0246
G1 X133.664 Y120.349 E.04793
G1 X116.349 Y120.351 E.5429
G1 X115.341 Y120.191 E.032
G1 X114.599 Y119.979 E.0242
G1 X113.424 Y119.456 E.04033
G1 X112.762 Y119.043 E.02446
G1 X111.599 Y118.031 E.04834
G1 X110.965 Y117.248 E.03159
G1 X110.554 Y116.594 E.02422
G1 X109.945 Y115.164 E.04873
G1 X109.651 Y113.664 E.04793
G1 X109.649 Y96.358 E.54262
G1 X109.807 Y95.354 E.03187
G1 X110.018 Y94.611 E.02422
G1 X110.31 Y93.883 E.02459
G1 X110.907 Y92.849 E.03744
M204 S1000
; printing object Skadis Wall Spacer.STL id:0 copy 2
;WIPE_START
G1 F8640
G1 X111.963 Y91.605 E-.37678
G1 X113.201 Y90.672 E-.35795
G1 X113.457 Y90.553 E-.06527
;WIPE_END
G1 Z.6 F720
G1 X113.174 Y111.248 F10800
G1 Z.2 F720
G1 E.8 F2100
M204 S800
;TYPE:Perimeter
;WIDTH:0.419999
G1 F1200
G1 X113.472 Y110.708 E.01934
G1 X113.8 Y110.267 E.01723
G1 X114.151 Y109.901 E.0159
G1 X114.552 Y109.576 E.01618
G1 X115.283 Y109.156 E.02643
G1 X115.777 Y108.976 E.01649
G1 X116.32 Y108.853 E.01746
G1 X116.87 Y108.799 E.01733
G1 X117.399 Y108.813 E.01659
G1 X117.908 Y108.894 E.01616
G1 X118.674 Y109.143 E.02525
G1 X119.141 Y109.382 E.01645
G1 X119.61 Y109.708 E.01791
G1 X120.035 Y110.095 E.01802
G1 X120.38 Y110.499 E.01666
M73 Q2 S16
G1 X120.66 Y110.932 E.01617
G1 X120.902 Y111.442 E.0177
G1 X121.067 Y111.945 E.0166
G1 X121.179 Y112.527 E.01858
G1 X121.206 Y113.042 E.01617
G1 X121.193 Y113.292 E.00785
G1 X121.122 Y113.843 E.01742
G1 X120.988 Y114.341 E.01617
G1 X120.787 Y114.827 E.01649
G1 X120.52 Y115.3 E.01703
G1 X120.192 Y115.741 E.01723
G1 X119.841 Y116.108 E.01592
M73 P2 R16
G1 X119.44 Y116.432 E.01616
G1 X118.742 Y116.835 E.02527
G1 X118.248 Y117.023 E.01657
G1 X117.672 Y117.156 E.01854
G1 X117.1 Y117.211 E.01802
G1 X116.593 Y117.195 E.0159
G1 X116.084 Y117.114 E.01616
G1 X115.318 Y116.865 E.02525
G1 X114.851 Y116.626 E.01645
G1 X114.382 Y116.3 E.01791
G1 X113.957 Y115.913 E.01802
G1 X113.612 Y115.509 E.01666
G1 X113.331 Y115.077 E.01616
G1 X113.09 Y114.566 E.01771
M73 P2 R15
G1 X112.925 Y114.063 E.0166
G1 X112.817 Y113.509 E.0177
G1 X112.784 Y113.004 E.01587
G1 X112.817 Y112.499 E.01587
G1 X112.99 Y111.703 E.02554
G1 X113.151 Y111.304 E.01349
M204 S1000
G1 X112.825 Y111.108 F10800
M204 S800
;TYPE:External perimeter
G1 F1200
G1 X113.215 Y110.411 E.02504
G1 X113.549 Y109.978 E.01715
G1 X113.925 Y109.594 E.01685
G1 X114.346 Y109.26 E.01685
G1 X114.932 Y108.912 E.02137
G1 X115.524 Y108.66 E.02017
G1 X116.042 Y108.515 E.01687
G1 X116.573 Y108.437 E.01683
G1 X117.124 Y108.421 E.01728
G1 X117.845 Y108.498 E.02273
G1 X118.359 Y108.625 E.0166
G1 X118.863 Y108.811 E.01684
G1 X119.346 Y109.066 E.01713
G1 X119.91 Y109.466 E.02168
G1 X120.366 Y109.893 E.01959
G1 X120.709 Y110.307 E.01686
G1 X120.996 Y110.76 E.01681
G1 X121.254 Y111.307 E.01896
G1 X121.47 Y111.995 E.02261
G1 X121.56 Y112.524 E.01682
G1 X121.582 Y113.061 E.01685
G1 X121.547 Y113.568 E.01593
G1 X121.408 Y114.246 E.0217
G1 X121.209 Y114.818 E.01899
G1 X120.97 Y115.299 E.01684
G1 X120.673 Y115.746 E.01683
G1 X120.264 Y116.217 E.01956
G1 X119.847 Y116.593 E.0176
G1 X119.338 Y116.948 E.01946
G1 X118.863 Y117.197 E.01682
G1 X118.346 Y117.387 E.01727
G1 X117.637 Y117.543 E.02276
G1 X117.053 Y117.591 E.01837
G1 X116.516 Y117.568 E.01685
G1 X115.986 Y117.478 E.01686
G1 X115.372 Y117.29 E.02013
G1 X114.752 Y117.005 E.0214
G1 X114.298 Y116.717 E.01686
G1 X113.884 Y116.374 E.01686
G1 X113.507 Y115.979 E.01712
G1 X113.1 Y115.42 E.02168
G1 X112.829 Y114.922 E.01778
G1 X112.631 Y114.422 E.01686
G1 X112.498 Y113.902 E.01683
G1 X112.419 Y113.245 E.02075
G1 X112.429 Y112.581 E.02082
G1 X112.507 Y112.05 E.01683
G1 X112.652 Y111.532 E.01687
G1 X112.802 Y111.164 E.01246
M204 S1000
G1 X113.224 Y111.078 F10800
;WIPE_START
G1 F8640
G1 X113.215 Y110.411 E-.1983
G1 X113.549 Y109.978 E-.12627
G1 X113.925 Y109.594 E-.12409
G1 X114.346 Y109.26 E-.12409
G1 X114.932 Y108.912 E-.15737
G1 X115.21 Y108.793 E-.06988
;WIPE_END
G1 Z.6 F720
G1 X114.219 Y113.036 F10800
G1 Z.2 F720
G1 E.8 F2100
M204 S800
;TYPE:Perimeter
G1 F1200
G1 X114.279 Y112.394 E.02022
G1 X114.443 Y111.889 E.01665
G1 X114.689 Y111.441 E.01603
G1 X114.978 Y111.083 E.01443
G1 X115.33 Y110.771 E.01475
G1 X115.861 Y110.466 E.0192
G1 X116.444 Y110.276 E.01923
G1 X116.944 Y110.219 E.01578
G1 X117.45 Y110.254 E.0159
G1 X117.945 Y110.384 E.01605
G1 X118.363 Y110.576 E.01442
G1 X118.851 Y110.933 E.01896
G1 X119.261 Y111.388 E.0192
G1 X119.528 Y111.842 E.01651
G1 X119.708 Y112.366 E.01737
G1 X119.776 Y113.004 E.02012
G1 X119.713 Y113.614 E.01923
G1 X119.559 Y114.099 E.01595
G1 X119.303 Y114.567 E.01673
G1 X119.014 Y114.925 E.01443
G1 X118.662 Y115.237 E.01475
G1 X118.13 Y115.542 E.01923
G1 X117.541 Y115.734 E.01942
G1 X117.043 Y115.79 E.01571
G1 X116.542 Y115.755 E.01575
G1 X116.135 Y115.654 E.01315
G1 X115.632 Y115.434 E.01721
G1 X115.141 Y115.076 E.01905
G1 X114.731 Y114.621 E.0192
G1 X114.463 Y114.166 E.01656
G1 X114.284 Y113.643 E.01733
G1 X114.225 Y113.095 E.01728
M204 S1000
G1 X114.605 Y113.117 F10800
M204 S800
;TYPE:External perimeter
G1 F1200
G1 X114.593 Y113.004 E.00356
G1 X114.651 Y112.457 E.01725
G1 X114.787 Y112.044 E.01363
G1 X115.028 Y111.619 E.01532
G1 X115.397 Y111.21 E.01727
G1 X115.835 Y110.892 E.01697
G1 X116.228 Y110.72 E.01345
G1 X116.721 Y110.616 E.0158
G1 X117.281 Y110.617 E.01756
G1 X117.771 Y110.721 E.01571
G1 X118.157 Y110.892 E.01324
G1 X118.595 Y111.21 E.01697
M73 Q2 S15
G1 X118.963 Y111.619 E.01725
G1 X119.209 Y112.05 E.01556
G1 X119.341 Y112.457 E.01342
G1 X119.399 Y113.004 E.01725
G1 X119.341 Y113.552 E.01728
G1 X119.197 Y113.987 E.01437
G1 X118.963 Y114.389 E.01458
G1 X118.595 Y114.798 E.01725
G1 X118.157 Y115.116 E.01697
G1 X117.786 Y115.279 E.01271
G1 X117.271 Y115.393 E.01654
G1 X116.721 Y115.393 E.01724
G1 X116.228 Y115.289 E.0158
G1 X115.835 Y115.116 E.01346
G1 X115.397 Y114.798 E.01697
G1 X115.028 Y114.389 E.01727
G1 X114.783 Y113.958 E.01554
G1 X114.651 Y113.552 E.01339
G1 X114.611 Y113.177 E.01182
M204 S1000
G1 X114.499 Y113.075 F10800
;WIPE_START
G1 F8640
G1 X114.593 Y113.004 E-.04016
G1 X114.651 Y112.457 E-.12701
G1 X114.787 Y112.044 E-.1004
G1 X115.028 Y111.619 E-.11281
G1 X115.397 Y111.21 E-.12719
G1 X115.835 Y110.892 E-.12498
G1 X116.228 Y110.72 E-.09906
G1 X116.518 Y110.659 E-.06839
;WIPE_END
G1 Z.6 F720
G1 X118.895 Y109.442 F10800
G1 Z.2 F720
G1 E.8 F2100
M204 S800
;TYPE:Solid infill
;WIDTH:0.429133
G1 F1200
G1 X119.901 Y110.448 E.04569
G1 X120.128 Y110.728 E.01158
G1 X120.349 Y111.068 E.01302
G1 X120.533 Y111.429 E.01301
G1 X120.656 Y111.748 E.01098
G1 X118.252 Y109.344 E.10918
G1 X117.801 Y109.217 E.01505
G1 X117.536 Y109.175 E.00862
G1 X120.825 Y112.464 E.14937
G1 X120.865 Y113.05 E.01886
G1 X120.017 Y112.202 E.03851
G1 X120.115 Y112.847 E.02095
G1 X120.824 Y113.555 E.03218
G1 X120.73 Y114.007 E.01483
G1 X120.094 Y113.371 E.02888
G1 X120.041 Y113.709 E.01099
G1 X120.003 Y113.827 E.00398
G1 X120.595 Y114.418 E.02686
G1 X120.587 Y114.439 E.00072
G1 X120.42 Y114.79 E.01248
G1 X119.865 Y114.235 E.02521
G1 X119.678 Y114.594 E.013
G1 X120.221 Y115.137 E.02466
G1 X119.989 Y115.452 E.01256
G1 X119.455 Y114.917 E.02427
G1 X119.274 Y115.146 E.00937
G1 X119.202 Y115.21 E.00309
G1 X119.73 Y115.738 E.02398
G1 X119.443 Y115.998 E.01244
G1 X118.913 Y115.467 E.02409
G1 X118.587 Y115.687 E.01263
G1 X119.129 Y116.229 E.02462
G1 X118.932 Y116.357 E.00754
G1 X118.785 Y116.432 E.0053
G1 X118.224 Y115.871 E.02548
G1 X118.091 Y115.93 E.00467
G1 X117.813 Y116.006 E.00926
G1 X118.41 Y116.603 E.02711
G1 X118.192 Y116.687 E.0075
G1 X117.999 Y116.738 E.00641
G1 X117.363 Y116.102 E.02888
G1 X116.996 Y116.132 E.01183
G1 X116.833 Y116.119 E.00525
G1 X117.546 Y116.832 E.03238
G1 X117.042 Y116.874 E.01624
G1 X115.921 Y115.752 E.05093
M204 S1000
;WIPE_START
G1 F8640
G1 X117.042 Y116.874 E-.36622
G1 X117.546 Y116.832 E-.11678
G1 X116.833 Y116.119 E-.23283
G1 X116.996 Y116.132 E-.03776
G1 X117.196 Y116.116 E-.04641
;WIPE_END
G1 Z.6 F720
G1 X118.069 Y110.254 F10800
G1 Z.2 F720
G1 E.8 F2100
M204 S800
G1 F1200
G1 X116.952 Y109.137 E.05073
G1 X116.445 Y109.176 E.01633
G1 X117.164 Y109.895 E.03265
G1 X116.932 Y109.879 E.00747
G1 X116.633 Y109.91 E.00965
G1 X115.993 Y109.27 E.02907
G1 X115.582 Y109.405 E.01389
G1 X116.174 Y109.997 E.02689
G1 X115.954 Y110.055 E.00731
G1 X115.767 Y110.137 E.00656
G1 X115.206 Y109.576 E.02548
G1 X114.863 Y109.779 E.0128
G1 X115.409 Y110.325 E.0248
G1 X115.075 Y110.537 E.0127
G1 X114.548 Y110.011 E.02391
G1 X114.262 Y110.27 E.01239
G1 X114.791 Y110.799 E.02402
G1 X114.679 Y110.903 E.00491
G1 X114.535 Y111.09 E.00758
G1 X114.002 Y110.557 E.02421
G1 X113.863 Y110.728 E.00708
G1 X113.771 Y110.871 E.00546
G1 X114.314 Y111.415 E.02468
G1 X114.128 Y111.775 E.01301
G1 X113.568 Y111.215 E.02543
G1 X113.459 Y111.429 E.00771
G1 X113.397 Y111.59 E.00554
G1 X113.983 Y112.176 E.02661
G1 X113.895 Y112.634 E.01498
G1 X113.262 Y112.001 E.02875
G1 X113.168 Y112.454 E.01486
G1 X113.877 Y113.162 E.03218
G1 X113.975 Y113.807 E.02095
G1 X113.126 Y112.958 E.03856
G1 X113.167 Y113.544 E.01886
G1 X116.456 Y116.833 E.14937
G1 X116.191 Y116.792 E.00861
G1 X115.74 Y116.664 E.01506
G1 X113.336 Y114.26 E.10918
G1 X113.459 Y114.579 E.01098
G1 X113.643 Y114.94 E.01301
G1 X113.863 Y115.28 E.01301
G1 X114.091 Y115.561 E.01162
G1 X115.096 Y116.566 E.04564
M204 S1000
; stop printing object Skadis Wall Spacer.STL id:0 copy 2
; printing object Skadis Wall Spacer.STL id:0 copy 3
;WIPE_START
G1 F8640
G1 X114.091 Y115.561 E-.32818
G1 X113.863 Y115.28 E-.08356
G1 X113.643 Y114.94 E-.09351
G1 X113.459 Y114.579 E-.09356
G1 X113.336 Y114.26 E-.07894
G1 X113.71 Y114.634 E-.12225
;WIPE_END
G1 Z.6 F720
G1 X113.174 Y95.24 F10800
G1 Z.2 F720
G1 E.8 F2100
M204 S800
;TYPE:Perimeter
;WIDTH:0.419999
G1 F1200
G1 X113.472 Y94.7 E.01934
G1 X113.8 Y94.259 E.01723
G1 X114.151 Y93.892 E.01592
G1 X114.552 Y93.568 E.01616
G1 X115.283 Y93.148 E.02643
G1 X115.777 Y92.968 E.01649
G1 X116.32 Y92.844 E.01746
M73 Q3 S15
G1 X116.87 Y92.791 E.01732
G1 X117.399 Y92.805 E.01659
G1 X117.908 Y92.886 E.01616
G1 X118.674 Y93.135 E.02525
G1 X119.141 Y93.374 E.01645
G1 X119.61 Y93.7 E.01791
G1 X120.035 Y94.087 E.01802
G1 X120.38 Y94.491 E.01666
G1 X120.66 Y94.923 E.01614
G1 X120.902 Y95.434 E.01773
M73 P3 R15
G1 X121.067 Y95.937 E.0166
G1 X121.179 Y96.519 E.01858
G1 X121.206 Y97.033 E.01614
G1 X121.193 Y97.283 E.00785
G1 X121.122 Y97.835 E.01745
G1 X120.988 Y98.332 E.01614
G1 X120.787 Y98.819 E.01652
G1 X120.52 Y99.292 E.01703
G1 X120.192 Y99.733 E.01723
G1 X119.841 Y100.099 E.0159
G1 X119.44 Y100.424 E.01618
G1 X118.742 Y100.827 E.02527
G1 X118.248 Y101.015 E.01657
G1 X117.672 Y101.147 E.01853
G1 X117.1 Y101.202 E.01802
G1 X116.593 Y101.187 E.0159
G1 X116.084 Y101.106 E.01616
G1 X115.318 Y100.857 E.02525
G1 X114.851 Y100.618 E.01645
G1 X114.382 Y100.292 E.01791
G1 X113.957 Y99.905 E.01802
G1 X113.612 Y99.501 E.01666
G1 X113.331 Y99.068 E.01618
G1 X113.09 Y98.558 E.01769
G1 X112.925 Y98.055 E.0166
G1 X112.817 Y97.501 E.0177
G1 X112.784 Y96.996 E.01587
G1 X112.817 Y96.491 E.01587
G1 X112.99 Y95.694 E.02557
G1 X113.151 Y95.296 E.01346
M204 S1000
G1 X112.825 Y95.1 F10800
M204 S800
;TYPE:External perimeter
G1 F1200
G1 X113.215 Y94.403 E.02504
G1 X113.549 Y93.969 E.01717
G1 X113.925 Y93.585 E.01685
G1 X114.346 Y93.252 E.01683
G1 X114.932 Y92.904 E.02137
G1 X115.524 Y92.652 E.02017
G1 X116.042 Y92.507 E.01687
G1 X116.573 Y92.429 E.01683
G1 X117.124 Y92.413 E.01728
G1 X117.845 Y92.49 E.02273
G1 X118.359 Y92.616 E.01659
G1 X118.863 Y92.803 E.01686
G1 X119.346 Y93.057 E.01711
G1 X119.91 Y93.458 E.0217
G1 X120.366 Y93.885 E.01959
G1 X120.709 Y94.298 E.01683
G1 X120.996 Y94.752 E.01684
G1 X121.254 Y95.299 E.01896
G1 X121.47 Y95.986 E.02258
G1 X121.56 Y96.516 E.01686
G1 X121.582 Y97.053 E.01685
G1 X121.547 Y97.56 E.01593
G1 X121.408 Y98.237 E.02167
G1 X121.209 Y98.809 E.01899
G1 X120.97 Y99.291 E.01687
G1 X120.673 Y99.738 E.01683
G1 X120.264 Y100.209 E.01956
G1 X119.847 Y100.585 E.0176
G1 X119.338 Y100.939 E.01944
G1 X118.863 Y101.189 E.01683
G1 X118.346 Y101.379 E.01727
G1 X117.637 Y101.535 E.02276
G1 X117.053 Y101.582 E.01837
G1 X116.516 Y101.56 E.01685
G1 X115.986 Y101.47 E.01686
G1 X115.372 Y101.282 E.02013
G1 X114.752 Y100.996 E.02141
G1 X114.298 Y100.709 E.01684
G1 X113.884 Y100.366 E.01686
G1 X113.507 Y99.97 E.01714
G1 X113.1 Y99.412 E.02166
G1 X112.829 Y98.913 E.0178
G1 X112.631 Y98.414 E.01683
G1 X112.498 Y97.894 E.01683
G1 X112.419 Y97.236 E.02078
G1 X112.429 Y96.573 E.02079
G1 X112.507 Y96.042 E.01683
G1 X112.652 Y95.524 E.01687
G1 X112.802 Y95.155 E.01249
M204 S1000
G1 X113.224 Y95.07 F10800
